!!!!SEGMENT: pl-cz--iii-666--001-003_scigalski-franciszek--missa-in-c-qui-tollis.krn
!!!cenid: 18xx:1086
!!!COM: Ścigalski, Franciszek
!!!COM-rismID: pe30002948
!!!CDT: 1782/01/29-1846/09/27
!!!CNT: Polish
!!!OPR: Missa in C
!!!OTL: Qui tollis
!!!OMV: 003
!!!PDT:
!!!AGN: Sacred; Mass
!!!SMS-siglum: PL-CZ
!!!SMS-shelfmark: III-666
!!!SMS-shelfwork: 001-003 M
!!!SMS-variant:
!!!SMS-altvar:
!!!NIFC-rismSourceID: 300001312
!!!NIFC-islandoraID: pl-cz:39667
!!!URL-pdf-islandora: https://repozytorium.nifc.pl/islandora/object/pl-cz%3A39667/datastream/PDF/view
!!!URL-scan:
!!!ONB-nifc: UWAGA: części Mszy: Kyrie, Gloria, Qui tollis, Quoniam, Credo, Et incarnatus,
!!!AIN: 1 alto 1 bass 2 clars 1 clrno 2 cor 2 fagot 2 flt 1 organ 1 soprn 1 tenor 1 timpa 1 viola 2 violn
!!!key: F
**kern	**fba	**dynam	**kern	**dynam	**kern	**dynam	**kern	**dynam	**kern	**text	**kern	**text	**dynam	**kern	**text	**kern	**text	**kern	**kern	**kern	**kern	**dynam	**kern	**dynam	**kern	**dynam	**kern	**dynam	**kern	**dynam	**kern	**kern
*part18	*	*part18	*part17	*part17	*part16	*part16	*part15	*part15	*part14	*part14	*part13	*part13	*part13	*part12	*part12	*part11	*part11	*part10	*part9	*part8	*part7	*part7	*part6	*part6	*part5	*part5	*part4	*part4	*part3	*part3	*part2	*part1
*group6	*	*	*group5	*	*group5	*	*group5	*	*group4	*group4	*group4	*group4	*	*group4	*group4	*group4	*group4	*group3	*group2	*group2	*group2	*	*group1	*	*group1	*	*group1	*	*group1	*	*group1	*group1
*staff18	*	*	*staff17	*	*staff16	*	*staff15	*	*staff14	*staff14	*staff13	*staff13	*	*staff12	*staff12	*staff11	*staff11	*staff10	*staff9	*staff8	*staff7	*	*staff6	*	*staff5	*	*staff4	*	*staff3	*	*staff2	*staff1
*I"Organo.	*	*	*I"Viola.	*	*I"Violino Secondo	*	*I"Violino Primo.	*	*I"Baſso!	*	*I"Tenore.	*	*	*I"Alto.	*	*I"Canto	*	*I"Tympano in C. G.	*I"Clarino Prinpalo. in C.	*I"Corno Secundo in G	*I"Corno Primo in G	*	*I"Fagotto Secondo.	*	*I"Fagotto Primo.	*	*I"Clarinetto Secondo. in C.	*	*I"Clarinetto Primo in C	*	*I"Flauto Secondo.	*I"Flauto Primo.
*I'org	*	*	*I'vla	*	*I'vl 2	*	*I'vl 1	*	*I'B	*	*I'T	*	*	*I'A	*	*I'S	*	*I'timp	*I'clno princ	*I'cor 2	*I'cor 1	*	*I'fg 2	*	*I'fg 1	*	*I'cl 2	*	*I'cl 1	*	*I'fl 2	*I'fl 1
*Iorgan	*	*	*Iviola	*	*Ivioln	*	*Ivioln	*	*Ibass	*	*Itenor	*	*	*Ialto	*	*Isoprn	*	*Itimpa	*Iclrno	*Icor	*Icor	*	*Ifagot	*	*Ifagot	*	*Iclars	*	*Iclars	*	*Iflt	*Iflt
*ICklav	*	*	*ICstr	*	*ICstr	*	*ICstr	*	*ICvox	*	*ICvox	*	*	*ICvox	*	*ICvox	*	*ICidio	*ICbras	*ICbras	*ICbras	*	*ICww	*	*ICww	*	*ICww	*	*ICww	*	*ICww	*ICww
*IGcont	*	*	*	*	*	*	*	*	*	*	*	*	*	*	*	*	*	*	*	*	*	*	*	*	*	*	*	*	*	*	*	*
*clefF4	*	*	*clefC3	*	*clefG2	*	*clefG2	*	*clefF4	*	*clefC4	*	*	*clefC3	*	*clefC1	*	*clefF4	*clefG2	*clefG2	*clefG2	*	*clefF4	*	*clefF4	*	*clefG2	*	*clefG2	*	*clefG2	*clefG2
*	*	*	*	*	*	*	*	*	*	*	*	*	*	*	*	*	*	*	*	*ITrd4c7	*ITrd4c7	*	*	*	*	*	*	*	*	*	*	*
*k[b-]	*	*	*k[b-]	*	*k[b-]	*	*k[b-]	*	*k[b-]	*	*k[b-]	*	*	*k[b-]	*	*k[b-]	*	*k[b-]	*k[b-]	*k[b-]	*k[b-]	*	*k[b-]	*	*k[b-]	*	*k[b-]	*	*k[b-]	*	*k[b-]	*k[b-]
*F:	*	*	*F:	*	*F:	*	*F:	*	*F:	*	*F:	*	*	*F:	*	*F:	*	*F:	*F:	*F:	*F:	*	*F:	*	*F:	*	*F:	*	*F:	*	*F:	*F:
*M3/4	*	*	*M3/4	*	*M3/4	*	*M3/4	*	*M3/4	*	*M3/4	*	*	*M3/4	*	*M3/4	*	*M3/4	*M3/4	*M3/4	*M3/4	*	*M3/4	*	*M3/4	*	*M3/4	*	*M3/4	*	*M3/4	*M3/4
=1	=1	=1	=1	=1	=1	=1	=1	=1	=1	=1	=1	=1	=1	=1	=1	=1	=1	=1	=1	=1	=1	=1	=1	=1	=1	=1	=1	=1	=1	=1	=1	=1
!!LO:TX:t=P:problem:4,8,16 left or right:global
!	!	!	!	!	!	!	!	!LO:DY:b:t=p.	!LO:N:vis=00	!	!	!	!	!LO:TX:b:t=13.	!	!LO:TX:b:t=13.	!	!	!	!	!LO:TX:a:t=Andante\nin F	!	!LO:TX:a:t=Andantino	!	!	!	!LO:TX:a:t=Andantino	!	!LO:TX:a:t=Andante:note=podkreślone	!	!LO:TX:a:t=Andantino.	!LO:TX:a:t=Andante
!	!	!	!	!	!	!LO:DY:b:t=p.	!	!	!LO:TX:a:t=Andante	!	!LO:TX:a:t=13	!	!	!LO:N:vis=00	!	!LO:N:vis=00	!	!	!	!LO:TX:a:t=Andante in F	!LO:TX:a:t=7	!	!LO:TX:a:t=7.	!	!LO:TX:a:t=7.	!	!LO:TX:a:t=7.	!	!LO:TX:a:t=7.	!	!LO:TX:a:t=7	!LO:TX:a:t=7
!LO:TX:a:t=Andantino	!	!	!	!	!LO:TX:a:t=Andante.	!	!LO:TX:a:t=andante	!	!LO:TX:a:t=11.	!	!LO:N:vis=00	!	!	!LO:TX:a:t=Andantino	!	!LO:TX:a:t=Andantino	!	!LO:TX:a:t=[Tacet]	!LO:TX:a:t=Tacet	!LO:N:vis=00	!LO:N:vis=00	!	!LO:N:vis=00	!	!LO:N:vis=00	!	!LO:N:vis=00	!	!LO:N:vis=00	!	!LO:N:vis=00	!LO:N:vis=00
8.r	.	.	4r	.	4r	p	(8.cc\L	p	0.r	.	0.r	.	.	0.r	.	0.r	.	2.ryy	2.ryy	0.r	0.r	.	0.r	.	0.r	.	0.r	.	0.r	.	0.r	0.r
!	!	!LO:DY:b:t=pia	!	!	!	!	!	!	!	!	!	!	!	!	!	!	!	!	!	!	!	!	!	!	!	!	!	!	!	!	!	!
16c\	x x 6	p	.	.	.	.	16a\Jk)	.	.	.	.	.	.	.	.	.	.	.	.	.	.	.	.	.	.	.	.	.	.	.	.	.
4B-\	x x 4	.	4A/	.	4c/	.	(4e/	.	.	.	.	.	.	.	.	.	.	.	.	.	.	.	.	.	.	.	.	.	.	.	.	.
4A\	x x 6	.	4A/	.	4c/	.	4f/)	.	.	.	.	.	.	.	.	.	.	.	.	.	.	.	.	.	.	.	.	.	.	.	.	.
=2	=2	=2	=2	=2	=2	=2	=2	=2	=2	=2	=2	=2	=2	=2	=2	=2	=2	=2	=2	=2	=2	=2	=2	=2	=2	=2	=2	=2	=2	=2	=2	=2
8.r	.	.	4r	.	4r	.	(8.dd'\L	.	.	.	.	.	.	.	.	.	.	2.ryy	2.ryy	.	.	.	.	.	.	.	.	.	.	.	.	.
16d\	x x 6	.	.	.	.	.	16b-'\Jk)	.	.	.	.	.	.	.	.	.	.	.	.	.	.	.	.	.	.	.	.	.	.	.	.	.
4c\	x x #4	.	4B-/	.	4d/	.	(4f#X/	.	.	.	.	.	.	.	.	.	.	.	.	.	.	.	.	.	.	.	.	.	.	.	.	.
4B-\	x x 6	.	4B-/	.	4d/	.	4g/)	.	.	.	.	.	.	.	.	.	.	.	.	.	.	.	.	.	.	.	.	.	.	.	.	.
=3	=3	=3	=3	=3	=3	=3	=3	=3	=3	=3	=3	=3	=3	=3	=3	=3	=3	=3	=3	=3	=3	=3	=3	=3	=3	=3	=3	=3	=3	=3	=3	=3
4C/	x 5 3	.	4c\	.	8e/L	.	8g'/L	.	.	.	.	.	.	.	.	.	.	2.ryy	2.ryy	.	.	.	.	.	.	.	.	.	.	.	.	.
.	.	.	.	.	8e/	.	8g'/	.	.	.	.	.	.	.	.	.	.	.	.	.	.	.	.	.	.	.	.	.	.	.	.	.
4C/	x 6 4	.	4c\	.	8f/	.	8a'/	.	.	.	.	.	.	.	.	.	.	.	.	.	.	.	.	.	.	.	.	.	.	.	.	.
.	.	.	.	.	8f/	.	8a'/	.	.	.	.	.	.	.	.	.	.	.	.	.	.	.	.	.	.	.	.	.	.	.	.	.
4C/	x 7 5	.	4c\	.	8g/	.	8b-'/	.	.	.	.	.	.	.	.	.	.	.	.	.	.	.	.	.	.	.	.	.	.	.	.	.
.	.	.	.	.	8g/J	.	8b-'/J	.	.	.	.	.	.	.	.	.	.	.	.	.	.	.	.	.	.	.	.	.	.	.	.	.
=4	=4	=4	=4	=4	=4	=4	=4	=4	=4	=4	=4	=4	=4	=4	=4	=4	=4	=4	=4	=4	=4	=4	=4	=4	=4	=4	=4	=4	=4	=4	=4	=4
4C/	x x 5	.	4c\	.	4e/	.	4g#X/	.	.	.	.	.	.	.	.	.	.	2.ryy	2.ryy	.	.	.	.	.	.	.	.	.	.	.	.	.
4FF/	x x 10	.	4F/	.	4f/	.	16a'/LL	.	.	.	.	.	.	.	.	.	.	.	.	.	.	.	.	.	.	.	.	.	.	.	.	.
.	.	.	.	.	.	.	16c'/	.	.	.	.	.	.	.	.	.	.	.	.	.	.	.	.	.	.	.	.	.	.	.	.	.
.	.	.	.	.	.	.	16d'/	.	.	.	.	.	.	.	.	.	.	.	.	.	.	.	.	.	.	.	.	.	.	.	.	.
.	.	.	.	.	.	.	16e'/JJ	.	.	.	.	.	.	.	.	.	.	.	.	.	.	.	.	.	.	.	.	.	.	.	.	.
4r	.	.	4r	.	4r	.	16f/LL	.	.	.	.	.	.	.	.	.	.	.	.	.	.	.	.	.	.	.	.	.	.	.	.	.
.	.	.	.	.	.	.	16gn/	.	.	.	.	.	.	.	.	.	.	.	.	.	.	.	.	.	.	.	.	.	.	.	.	.
.	.	.	.	.	.	.	16a/	.	.	.	.	.	.	.	.	.	.	.	.	.	.	.	.	.	.	.	.	.	.	.	.	.
.	.	.	.	.	.	.	16b-/JJ	.	.	.	.	.	.	.	.	.	.	.	.	.	.	.	.	.	.	.	.	.	.	.	.	.
!LO:LB:g=original	!	!	!	!	!	!	!	!	!	!	!	!	!	!	!	!	!	!	!	!	!	!	!	!	!	!	!	!	!	!	!	!
=5	=5	=5	=5	=5	=5	=5	=5	=5	=5	=5	=5	=5	=5	=5	=5	=5	=5	=5	=5	=5	=5	=5	=5	=5	=5	=5	=5	=5	=5	=5	=5	=5
!	!	!	!	!	!	!	!	!	!LO:N:vis=00	!	!LO:N:vis=00	!	!	!LO:N:vis=00	!	!LO:N:vis=00	!	!	!	!LO:N:vis=0	!LO:N:vis=0	!	!LO:N:vis=0	!	!LO:N:vis=0	!	!LO:N:vis=0	!	!LO:N:vis=0	!	!LO:N:vis=0	!LO:N:vis=0
8.r	.	.	4r	.	4r	.	(8.cc\L	.	0.r	.	0.r	.	.	0.r	.	0.r	.	2.ryy	2.ryy	1.r	1.r	.	1.r	.	1.r	.	1.r	.	1.r	.	1.r	1.r
16c\	x x 6	.	.	.	.	.	16a\Jk)	.	.	.	.	.	.	.	.	.	.	.	.	.	.	.	.	.	.	.	.	.	.	.	.	.
4B-\	x x 4	.	4A/	.	4c/	.	(4e/	.	.	.	.	.	.	.	.	.	.	.	.	.	.	.	.	.	.	.	.	.	.	.	.	.
4A\	x x 6	.	4A/	.	4c/	.	4f/)	.	.	.	.	.	.	.	.	.	.	.	.	.	.	.	.	.	.	.	.	.	.	.	.	.
!	!	!	!	!	!	!	!LO:LB:g=original	!	!	!	!	!	!	!	!	!	!	!	!	!	!	!	!	!	!	!	!	!	!	!	!	!
=6	=6	=6	=6	=6	=6	=6	=6	=6	=6	=6	=6	=6	=6	=6	=6	=6	=6	=6	=6	=6	=6	=6	=6	=6	=6	=6	=6	=6	=6	=6	=6	=6
8.r	.	.	4r	.	4r	.	(8.dd\L	.	.	.	.	.	.	.	.	.	.	2.ryy	2.ryy	.	.	.	.	.	.	.	.	.	.	.	.	.
16d\	x x 6	.	.	.	.	.	16b-\Jk)	.	.	.	.	.	.	.	.	.	.	.	.	.	.	.	.	.	.	.	.	.	.	.	.	.
4c\	x x #4	.	4B-/	.	4d/	.	4f#X/	.	.	.	.	.	.	.	.	.	.	.	.	.	.	.	.	.	.	.	.	.	.	.	.	.
4B-\	x x 6	.	4B-/	.	4d/	.	4g/	.	.	.	.	.	.	.	.	.	.	.	.	.	.	.	.	.	.	.	.	.	.	.	.	.
=7	=7	=7	=7	=7	=7	=7	=7	=7	=7	=7	=7	=7	=7	=7	=7	=7	=7	=7	=7	=7	=7	=7	=7	=7	=7	=7	=7	=7	=7	=7	=7	=7
4c\	x 6_ 4_	.	4c\	.	4.a/	.	4.cc\	.	.	.	.	.	.	.	.	.	.	2.ryy	2.ryy	2.r	2.r	.	2.r	.	2.r	.	2.r	.	2.r	.	2.r	2.r
4c\	.	.	4c\	.	.	.	.	.	.	.	.	.	.	.	.	.	.	.	.	.	.	.	.	.	.	.	.	.	.	.	.	.
.	.	.	.	.	16b-/LL	.	(16dd\LL	.	.	.	.	.	.	.	.	.	.	.	.	.	.	.	.	.	.	.	.	.	.	.	.	.
.	.	.	.	.	16a/JJ	.	16cc\JJ)	.	.	.	.	.	.	.	.	.	.	.	.	.	.	.	.	.	.	.	.	.	.	.	.	.
4C/	x 5 3	.	4c\	.	16a/LL	.	(16cc/LL	.	.	.	.	.	.	.	.	.	.	.	.	.	.	.	.	.	.	.	.	.	.	.	.	.
.	.	.	.	.	16g/	.	16b-/	.	.	.	.	.	.	.	.	.	.	.	.	.	.	.	.	.	.	.	.	.	.	.	.	.
.	.	.	.	.	16f/	.	16a/	.	.	.	.	.	.	.	.	.	.	.	.	.	.	.	.	.	.	.	.	.	.	.	.	.
.	.	.	.	.	16e/JJ	.	16g/JJ)	.	.	.	.	.	.	.	.	.	.	.	.	.	.	.	.	.	.	.	.	.	.	.	.	.
!	!	!	!	!	!LO:LB:g=original	!	!	!	!	!	!	!	!	!	!	!	!	!	!	!	!	!	!	!	!	!	!	!	!	!	!	!
=8	=8	=8	=8	=8	=8	=8	=8	=8	=8	=8	=8	=8	=8	=8	=8	=8	=8	=8	=8	=8	=8	=8	=8	=8	=8	=8	=8	=8	=8	=8	=8	=8
*	*	*	*	*	*	*	*	*	*	*	*	*	*	*	*	*	*	*	*	*	*2\right	*	*2\right	*	*2\right	*	*	*	*2\right	*	*2\right	*2\right
!	!	!	!	!	!	!LO:DY:b:rj:t=f.	!	!	!	!	!	!	!	!	!	!	!	!	!	!	!	!	!	!	!LO:TX:a:t=Andantino	!LO:DY:rj	!	!LO:DY:rj	!	!LO:DY:b:rj:t=f.	!	!
4F\	x x 3_	.	4f\	.	16f/LL	f	4f/	.	.	.	.	.	.	.	.	.	.	2.ryy	2.ryy	2.A/	2.f\	f	2.F\	.	2.A\	f	2.a/	f	2.ff\	f	2ff\	2ff\
.	.	.	.	.	16c/	.	.	.	.	.	.	.	.	.	.	.	.	.	.	.	.	.	.	.	.	.	.	.	.	.	.	.
.	.	.	.	.	16A/	.	.	.	.	.	.	.	.	.	.	.	.	.	.	.	.	.	.	.	.	.	.	.	.	.	.	.
.	.	.	.	.	16c/JJ	.	.	.	.	.	.	.	.	.	.	.	.	.	.	.	.	.	.	.	.	.	.	.	.	.	.	.
*	*	*	*	*	*rep	*	*	*	*	*	*	*	*	*	*	*	*	*	*	*	*	*	*	*	*	*	*	*	*	*	*	*
4F\	.	.	4f\	.	16f/LL	.	8r	.	.	.	.	.	.	.	.	.	.	.	.	.	.	.	.	.	.	.	.	.	.	.	.	.
.	.	.	.	.	16c/	.	.	.	.	.	.	.	.	.	.	.	.	.	.	.	.	.	.	.	.	.	.	.	.	.	.	.
.	.	.	.	.	16A/	.	8cc\	.	.	.	.	.	.	.	.	.	.	.	.	.	.	.	.	.	.	.	.	.	.	.	.	.
.	.	.	.	.	16c/JJ	.	.	.	.	.	.	.	.	.	.	.	.	.	.	.	.	.	.	.	.	.	.	.	.	.	.	.
*	*	*	*	*	*Xrep	*	*	*	*	*	*	*	*	*	*	*	*	*	*	*	*	*	*	*	*	*	*	*	*	*	*	*
*	*	*	*	*	*rep	*	*	*	*	*	*	*	*	*	*	*	*	*	*	*	*	*	*	*	*	*	*	*	*	*	*	*
4F\	.	.	4f\	.	16f/LL	.	16aa'\LL	.	.	.	.	.	.	.	.	.	.	.	.	.	.	.	.	.	.	.	.	.	.	.	8ff\L	8ff\L
.	.	.	.	.	16c/	.	16gg'\J	.	.	.	.	.	.	.	.	.	.	.	.	.	.	.	.	.	.	.	.	.	.	.	.	.
.	.	.	.	.	16A/	.	8ff\J	.	.	.	.	.	.	.	.	.	.	.	.	.	.	.	.	.	.	.	.	.	.	.	8aa\J	8aa\J
.	.	.	.	.	16c/JJ	.	.	.	.	.	.	.	.	.	.	.	.	.	.	.	.	.	.	.	.	.	.	.	.	.	.	.
*	*	*	*	*	*Xrep	*	*	*	*	*	*	*	*	*	*	*	*	*	*	*	*	*	*	*	*	*	*	*	*	*	*	*
!	!	!	!LO:LB:g=original	!	!	!	!	!	!	!	!	!	!	!	!	!	!	!	!	!	!	!	!	!	!	!	!	!	!	!	!	!
=9	=9	=9	=9	=9	=9	=9	=9	=9	=9	=9	=9	=9	=9	=9	=9	=9	=9	=9	=9	=9	=9	=9	=9	=9	=9	=9	=9	=9	=9	=9	=9	=9
!	!	!	!	!	!	!	!	!	!LO:N:vis=0	!	!LO:N:vis=00	!	!	!LO:N:vis=00	!	!LO:N:vis=00	!	!	!	!	!	!	!	!	!	!	!	!	!	!	!	!
4C/	x x 7_	.	4c\	.	16B-/LL	.	16bb-'\LL	.	1.r	.	0.r	.	.	0.r	.	0.r	.	2.ryy	2.ryy	2.c/	2.g\	.	2.G\	.	2.B-\	.	2.b-/	.	2.gg\	.	2ccc\	2ccc\
.	.	.	.	.	16c/	.	16aa'\J	.	.	.	.	.	.	.	.	.	.	.	.	.	.	.	.	.	.	.	.	.	.	.	.	.
.	.	.	.	.	16e/	.	8gg\J	.	.	.	.	.	.	.	.	.	.	.	.	.	.	.	.	.	.	.	.	.	.	.	.	.
.	.	.	.	.	16c/JJ	.	.	.	.	.	.	.	.	.	.	.	.	.	.	.	.	.	.	.	.	.	.	.	.	.	.	.
*	*	*	*	*	*rep	*	*	*	*	*	*	*	*	*	*	*	*	*	*	*	*	*	*	*	*	*	*	*	*	*	*	*
4C/	.	.	4c\	.	16B-/LL	.	16gg'\LL	.	.	.	.	.	.	.	.	.	.	.	.	.	.	.	.	.	.	.	.	.	.	.	.	.
.	.	.	.	.	16c/	.	16ff'\J	.	.	.	.	.	.	.	.	.	.	.	.	.	.	.	.	.	.	.	.	.	.	.	.	.
.	.	.	.	.	16e/	.	8ee\J	.	.	.	.	.	.	.	.	.	.	.	.	.	.	.	.	.	.	.	.	.	.	.	.	.
.	.	.	.	.	16c/JJ	.	.	.	.	.	.	.	.	.	.	.	.	.	.	.	.	.	.	.	.	.	.	.	.	.	.	.
*	*	*	*	*	*Xrep	*	*	*	*	*	*	*	*	*	*	*	*	*	*	*	*	*	*	*	*	*	*	*	*	*	*	*
*	*	*	*	*	*rep	*	*	*	*	*	*	*	*	*	*	*	*	*	*	*	*	*	*	*	*	*	*	*	*	*	*	*
4C/	.	.	4c\	.	16B-/LL	.	16ee'\LL	.	.	.	.	.	.	.	.	.	.	.	.	.	.	.	.	.	.	.	.	.	.	.	4ccc\	4ccc\
.	.	.	.	.	16c/	.	16ff'\	.	.	.	.	.	.	.	.	.	.	.	.	.	.	.	.	.	.	.	.	.	.	.	.	.
.	.	.	.	.	16e/	.	16gg'\	.	.	.	.	.	.	.	.	.	.	.	.	.	.	.	.	.	.	.	.	.	.	.	.	.
.	.	.	.	.	16c/JJ	.	16aa'\JJ	.	.	.	.	.	.	.	.	.	.	.	.	.	.	.	.	.	.	.	.	.	.	.	.	.
*	*	*	*	*	*Xrep	*	*	*	*	*	*	*	*	*	*	*	*	*	*	*	*	*	*	*	*	*	*	*	*	*	*	*
!LO:LB:g=original	!	!	!	!	!	!	!	!	!	!	!	!	!	!	!	!	!	!	!	!	!	!	!	!	!	!	!	!	!	!	!	!
=10	=10	=10	=10	=10	=10	=10	=10	=10	=10	=10	=10	=10	=10	=10	=10	=10	=10	=10	=10	=10	=10	=10	=10	=10	=10	=10	=10	=10	=10	=10	=10	=10
4F\	x x 3_	.	4f\	.	16A/LL	.	4ff\	.	.	.	.	.	.	.	.	.	.	2.ryy	2.ryy	2.A/	2.f\	.	2.F\	.	2.A\	.	2.a/	.	2.ff\	.	4aa\	4aa\
.	.	.	.	.	16c/	.	.	.	.	.	.	.	.	.	.	.	.	.	.	.	.	.	.	.	.	.	.	.	.	.	.	.
.	.	.	.	.	16f/	.	.	.	.	.	.	.	.	.	.	.	.	.	.	.	.	.	.	.	.	.	.	.	.	.	.	.
.	.	.	.	.	16c/JJ	.	.	.	.	.	.	.	.	.	.	.	.	.	.	.	.	.	.	.	.	.	.	.	.	.	.	.
*	*	*	*	*	*rep	*	*	*	*	*	*	*	*	*	*	*	*	*	*	*	*	*	*	*	*	*	*	*	*	*	*	*
4F\	.	.	4f\	.	16A/LL	.	8r	.	.	.	.	.	.	.	.	.	.	.	.	.	.	.	.	.	.	.	.	.	.	.	4ff\	4ff\
.	.	.	.	.	16c/	.	.	.	.	.	.	.	.	.	.	.	.	.	.	.	.	.	.	.	.	.	.	.	.	.	.	.
.	.	.	.	.	16f/	.	8cc\	.	.	.	.	.	.	.	.	.	.	.	.	.	.	.	.	.	.	.	.	.	.	.	.	.
.	.	.	.	.	16c/JJ	.	.	.	.	.	.	.	.	.	.	.	.	.	.	.	.	.	.	.	.	.	.	.	.	.	.	.
*	*	*	*	*	*Xrep	*	*	*	*	*	*	*	*	*	*	*	*	*	*	*	*	*	*	*	*	*	*	*	*	*	*	*
*	*	*	*	*	*rep	*	*	*	*	*	*	*	*	*	*	*	*	*	*	*	*	*	*	*	*	*	*	*	*	*	*	*
4F\	.	.	4f\	.	16A/LL	.	16aa\LL	.	.	.	.	.	.	.	.	.	.	.	.	.	.	.	.	.	.	.	.	.	.	.	8ff\L	8ff\L
.	.	.	.	.	16c/	.	16gg\J	.	.	.	.	.	.	.	.	.	.	.	.	.	.	.	.	.	.	.	.	.	.	.	.	.
.	.	.	.	.	16f/	.	8ff\J	.	.	.	.	.	.	.	.	.	.	.	.	.	.	.	.	.	.	.	.	.	.	.	8aa\J	8aa\J
.	.	.	.	.	16c/JJ	.	.	.	.	.	.	.	.	.	.	.	.	.	.	.	.	.	.	.	.	.	.	.	.	.	.	.
*	*	*	*	*	*Xrep	*	*	*	*	*	*	*	*	*	*	*	*	*	*	*	*	*	*	*	*	*	*	*	*	*	*	*
=11	=11	=11	=11	=11	=11	=11	=11	=11	=11	=11	=11	=11	=11	=11	=11	=11	=11	=11	=11	=11	=11	=11	=11	=11	=11	=11	=11	=11	=11	=11	=11	=11
4C/	x x 7_	.	4c\	.	16B-/LL	.	16bb-'\LL	.	2.r	.	.	.	.	.	.	.	.	2.ryy	2.ryy	2.c/	2.g\	.	2.G\	.	2.B-\	.	2.b-/	.	2.gg\	.	2ccc\	2ccc\
.	.	.	.	.	16c/	.	16aa'\J	.	.	.	.	.	.	.	.	.	.	.	.	.	.	.	.	.	.	.	.	.	.	.	.	.
.	.	.	.	.	16e/	.	8gg'\J	.	.	.	.	.	.	.	.	.	.	.	.	.	.	.	.	.	.	.	.	.	.	.	.	.
.	.	.	.	.	16c/JJ	.	.	.	.	.	.	.	.	.	.	.	.	.	.	.	.	.	.	.	.	.	.	.	.	.	.	.
*	*	*	*	*	*rep	*	*	*	*	*	*	*	*	*	*	*	*	*	*	*	*	*	*	*	*	*	*	*	*	*	*	*
4C/	.	.	4c\	.	16B-/LL	.	16gg'\LL	.	.	.	.	.	.	.	.	.	.	.	.	.	.	.	.	.	.	.	.	.	.	.	.	.
.	.	.	.	.	16c/	.	16ff'\J	.	.	.	.	.	.	.	.	.	.	.	.	.	.	.	.	.	.	.	.	.	.	.	.	.
.	.	.	.	.	16e/	.	8ee'\J	.	.	.	.	.	.	.	.	.	.	.	.	.	.	.	.	.	.	.	.	.	.	.	.	.
.	.	.	.	.	16c/JJ	.	.	.	.	.	.	.	.	.	.	.	.	.	.	.	.	.	.	.	.	.	.	.	.	.	.	.
*	*	*	*	*	*Xrep	*	*	*	*	*	*	*	*	*	*	*	*	*	*	*	*	*	*	*	*	*	*	*	*	*	*	*
*	*	*	*	*	*rep	*	*	*	*	*	*	*	*	*	*	*	*	*	*	*	*	*	*	*	*	*	*	*	*	*	*	*
4C/	.	.	4c\	.	16B-/LL	.	16ee\LL	.	.	.	.	.	.	.	.	.	.	.	.	.	.	.	.	.	.	.	.	.	.	.	4ccc\	4ccc\
.	.	.	.	.	16c/	.	16ff\	.	.	.	.	.	.	.	.	.	.	.	.	.	.	.	.	.	.	.	.	.	.	.	.	.
.	.	.	.	.	16e/	.	16gg\	.	.	.	.	.	.	.	.	.	.	.	.	.	.	.	.	.	.	.	.	.	.	.	.	.
.	.	.	.	.	16c/JJ	.	16aa\JJ	.	.	.	.	.	.	.	.	.	.	.	.	.	.	.	.	.	.	.	.	.	.	.	.	.
*	*	*	*	*	*Xrep	*	*	*	*	*	*	*	*	*	*	*	*	*	*	*	*	*	*	*	*	*	*	*	*	*	*	*
!	!	!	!	!	!	!	!LO:LB:g=original	!	!	!	!	!	!	!	!	!	!	!	!	!	!	!	!	!	!	!	!	!	!	!	!	!
=12	=12	=12	=12	=12	=12	=12	=12	=12	=12	=12	=12	=12	=12	=12	=12	=12	=12	=12	=12	=12	=12	=12	=12	=12	=12	=12	=12	=12	=12	=12	=12	=12
!	!	!	!	!	!	!	!	!	!LO:TX:a:t=Solo	!	!	!	!	!	!	!	!	!	!	!	!	!	!	!	!	!	!	!	!	!	!	!
4F\	x x 3_	.	4f\	.	4A/	.	4ff\	.	4r	.	.	.	.	.	.	.	.	2.ryy	2.ryy	4A/	4f\	.	4F\	.	4A\	.	4a/	.	4ff\	.	4aa\	4aa\
4FF/	.	.	4F/	.	4A/	.	4f/	.	4r	.	.	.	.	.	.	.	.	.	.	4A/	4f\	.	4F\	.	4A\	.	4a/	.	4ff\	.	4ff\	4ff\
4C|>/	x x x	.	4c\	.	4c/	.	4c/	.	4C/	Qvi	.	.	.	.	.	.	.	.	.	4r	4r	.	4r	.	4r	.	4r	.	4r	.	4r	4r
!	!	!	!	!	!	!	!	!	!	!	!	!	!	!	!	!	!	!	!	!	!	!	!	!	!	!	!	!	!	!	!LO:LB:g=original	!
=13	=13	=13	=13	=13	=13	=13	=13	=13	=13	=13	=13	=13	=13	=13	=13	=13	=13	=13	=13	=13	=13	=13	=13	=13	=13	=13	=13	=13	=13	=13	=13	=13
!	!	!	!	!	!	!	!	!	!	!	!	!	!	!	!	!	!	!	!	!LO:TX:a:t=2	!LO:TX:a:t=2	!	!LO:TX:a:t=1.	!	!LO:TX:a:t=1.	!	!LO:TX:a:t=2.	!	!LO:TX:a:t=2.	!	!LO:TX:a:t=1	!LO:TX:a:t=1
!	!	!	!	!	!	!LO:DY:b:rj	!	!	!	!	!	!	!	!	!	!	!	!	!	!LO:N:vis=0	!LO:N:vis=0	!	!	!	!	!	!LO:N:vis=0	!	!	!	!	!
4F|\	.	.	4f\	.	4f/	f	4f/	.	4F\	tol-	2.r	.	.	2.r	.	2.r	.	2.ryy	2.ryy	1.r	1.r	.	2.r	.	2.r	.	1.r	.	2.r	.	2.r	2.r
8.A|\L	.	.	8.a\L	.	8.a/L	.	8.a|/L	.	8.A\	-lis	.	.	.	.	.	.	.	.	.	.	.	.	.	.	.	.	.	.	.	.	.	.
16G|\Jk	.	.	16g\Jk	.	16g/Jk	.	16g|/Jk	.	16G\	pec-	.	.	.	.	.	.	.	.	.	.	.	.	.	.	.	.	.	.	.	.	.	.
8.F|\L	.	.	8.f\L	.	8.f/L	.	8.f|/L	.	8.F\	-ca-	.	.	.	.	.	.	.	.	.	.	.	.	.	.	.	.	.	.	.	.	.	.
16E|\Jk	.	.	16e\Jk	.	16e/Jk	.	16e|/Jk	.	16E\	-ta	.	.	.	.	.	.	.	.	.	.	.	.	.	.	.	.	.	.	.	.	.	.
=14	=14	=14	=14	=14	=14	=14	=14	=14	=14	=14	=14	=14	=14	=14	=14	=14	=14	=14	=14	=14	=14	=14	=14	=14	=14	=14	=14	=14	=14	=14	=14	=14
!	!	!	!	!	!	!	!	!	!	!	!	!	!	!	!	!LO:TX:a:t=Solo	!	!	!	!	!	!	!	!	!	!	!	!	!	!	!	!
4D|/	.	.	4d\	.	4d/	.	4d/	.	4D\	mun-	4r	.	.	4r	.	4r	.	2.ryy	2.ryy	.	.	.	4r	.	4r	.	.	.	2.r	.	4r	4r
4BB-/	x x 10	.	4B-/	.	4dd\	.	4dd\	.	4d\	-di	4r	.	.	4r	.	4r	.	.	.	.	.	.	4r	.	4r	.	.	.	.	.	4r	4r
4r	.	.	4r	.	4r	.	4r	.	8BB-/	mi-	8f\	Mi-	.	8b-\	Mi-	8dd\	Mi-	.	.	.	.	.	8BB-/L	.	8BB-/L	.	.	.	.	.	8bb-\L	8ddd\L
.	.	.	.	.	.	.	.	.	8BB-/	-se-	8f\	-se-	.	8b-\	-se-	8dd\	-se-	.	.	.	.	.	8BB-/J	.	8BB-/J	.	.	.	.	.	8bb-\J	8ddd\J
!	!	!	!	!	!LO:LB:g=original	!	!	!	!LO:LB:g=original	!	!	!	!	!LO:LB:g=original	!	!	!	!	!	!	!	!	!	!	!	!	!	!	!	!	!	!
=15	=15	=15	=15	=15	=15	=15	=15	=15	=15	=15	=15	=15	=15	=15	=15	=15	=15	=15	=15	=15	=15	=15	=15	=15	=15	=15	=15	=15	=15	=15	=15	=15
*	*	*	*	*	*	*	*	*	*	*	*2\right	*	*	*	*	*	*	*	*	*	*	*	*	*	*	*	*	*	*	*	*	*
!LO:TX:a:t=1.	!	!	!LO:TX:a:t=1	!	!LO:TX:a:t=1	!	!LO:TX:a:t=1.	!	!	!	!	!	!	!	!	!	!	!	!	!	!	!	!	!	!	!	!	!LO:DY:rj:t=p.	!	!LO:DY:b:rj:t=p.	!	!
2.r	.	.	2.r	.	2.r	.	2.r	.	(4C/	-re-	2e\	-re-	.	4.a\	-re-	(4.cc\	-re-	2.ryy	2.ryy	2.C/	2.c/	p	4C/	.	4C/	.	2.g/	p	2.ee\	p	4.aa\	4.ccc\
.	.	.	.	.	.	.	.	.	4D/)	.	.	.	.	.	.	.	.	.	.	.	.	.	4D/	.	4D/	.	.	.	.	.	.	.
.	.	.	.	.	.	.	.	.	.	.	.	.	.	(16b-\LL	.	16dd\LL	.	.	.	.	.	.	.	.	.	.	.	.	.	.	16bb-\LL	16ddd\LL
.	.	.	.	.	.	.	.	.	.	.	.	.	.	16a\JJ)	.	16cc\JJ)	.	.	.	.	.	.	.	.	.	.	.	.	.	.	16aa\JJ	16ccc\JJ
.	.	.	.	.	.	.	.	.	4E/	-re	4e\	-re	.	(16a\LL	.	(16cc\LL	.	.	.	.	.	.	4E/	.	4E/	.	.	.	.	.	16aa\LL	16ccc\LL
.	.	.	.	.	.	.	.	.	.	.	.	.	.	16g\	.	16b-\	.	.	.	.	.	.	.	.	.	.	.	.	.	.	16gg\	16bb-\
.	.	.	.	.	.	.	.	.	.	.	.	.	.	16f\)	-re	16a\	-re	.	.	.	.	.	.	.	.	.	.	.	.	.	16ff\	16aa\
.	.	.	.	.	.	.	.	.	.	.	.	.	.	16e\JJ	.	16g\JJ)	.	.	.	.	.	.	.	.	.	.	.	.	.	.	16ee\JJ	16gg\JJ
!LO:LB:g=original	!	!	!	!	!	!	!	!	!	!	!	!	!	!	!	!	!	!	!	!	!LO:LB:g=original	!	!LO:LB:g=original	!	!	!	!	!	!	!	!	!LO:LB:g=original
=16	=16	=16	=16	=16	=16	=16	=16	=16	=16	=16	=16	=16	=16	=16	=16	=16	=16	=16	=16	=16	=16	=16	=16	=16	=16	=16	=16	=16	=16	=16	=16	=16
4r	.	.	4r	.	4r	.	4r	.	4F\	no-	4c\	no-	.	4e\	no-	4g#X\	no-	2.ryy	2.ryy	4C/	4c/	.	4F\	.	4F\	.	4g#X/	.	4ee\	.	4ee\	4gg#X\
8r	.	.	8r	.	4r	.	4r	.	4F\	-bis	8c\	-bis	.	8f\	-bis	8a\	-bis	.	.	8F/	8f\	.	4FF/	.	4FF/	.	8a/	.	8ff\	.	8ff\	8aa\
!	!	!	!LO:TX:t=P:problem:mixed beam	!	!	!	!	!	!	!	!	!	!	!	!	!	!	!	!	!LO:LB:g=original	!	!	!	!	!	!	!	!	!	!	!	!
!LO:TX:t=P:problem:mixed beam	!	!	!	!	!	!	!	!	!	!	!	!	!	!	!	!	!	!	!	!LO:N:vis=4	!	!	!	!	!	!	!	!	!	!	!	!
8F|>\L	.	.	8f\L	.	.	.	.	.	.	.	8r	.	.	8r	.	8r	.	.	.	8r	8r	.	.	.	.	.	8r	.	8r	.	8r	8r
!	!	!	!	!	!	!	!	!	!	!	!	!	!	!	!	!	!	!	!	!LO:N:vis=2	!	!	!	!	!	!	!	!	!	!	!	!
8AA|/	.	.	8A/	.	4c/	.	4c/	.	8r	.	4r	.	.	4r	.	4r	.	.	.	4r	4r	.	4r	.	4r	.	4r	.	4r	.	4r	4r
!	!	!	!	!	!	!	!	!	!LO:TX:a:t=Solo	!	!	!	!	!	!	!	!	!	!	!	!	!	!	!	!	!	!	!	!	!	!	!
8C|/J	.	.	8c/J	.	.	.	.	.	8C/	qvi	.	.	.	.	.	.	.	.	.	.	.	.	.	.	.	.	.	.	.	.	.	.
!	!	!	!	!	!	!	!	!	!	!	!	!	!	!	!	!	!	!	!	!	!	!	!	!	!LO:LB:g=original	!	!	!	!	!	!	!
=17	=17	=17	=17	=17	=17	=17	=17	=17	=17	=17	=17	=17	=17	=17	=17	=17	=17	=17	=17	=17	=17	=17	=17	=17	=17	=17	=17	=17	=17	=17	=17	=17
!	!	!	!	!	!	!	!	!	!	!	!LO:TX:a:t=1	!	!	!LO:TX:a:t=1.	!	!LO:TX:a:t=1.	!	!	!	!LO:TX:a:t=2	!LO:TX:t=P:problem:brak t. 17-18	!	!LO:TX:a:t=1.	!	!LO:TX:a:t=1.	!	!LO:TX:a:t=2.	!	!LO:TX:a:t=2.	!	!LO:TX:a:t=1	!LO:TX:a:t=1
!	!	!	!	!	!	!	!	!	!	!	!	!	!	!	!	!	!	!	!	!LO:N:vis=0	!LO:TX:t=2:color=grey	!	!	!	!	!	!LO:N:vis=0	!	!	!	!	!
4F|\	.	.	4f\	.	4f/	.	4f/	.	4F\	tol-	2.r	.	.	2.r	.	2.r	.	2.ryy	2.ryy	1.r	2.ryy	.	2.r	.	2.r	.	1.r	.	2.r	.	2.r	2.r
8.A|\L	.	.	8.a\L	.	8.a/L	.	8.a/L	.	8.A\	-lis	.	.	.	.	.	.	.	.	.	.	.	.	.	.	.	.	.	.	.	.	.	.
16G|\Jk	.	.	16g\Jk	.	16g/Jk	.	16g/Jk	.	16G\	pec-	.	.	.	.	.	.	.	.	.	.	.	.	.	.	.	.	.	.	.	.	.	.
8.F|\L	.	.	8.f\L	.	8.f/L	.	8.f/L	.	8.F\	-ca-	.	.	.	.	.	.	.	.	.	.	.	.	.	.	.	.	.	.	.	.	.	.
16E|\Jk	.	.	16e\Jk	.	16e/Jk	.	16e/Jk	.	16E\	-ta	.	.	.	.	.	.	.	.	.	.	.	.	.	.	.	.	.	.	.	.	.	.
!	!	!	!LO:PB:g=original	!	!	!	!	!	!	!	!	!	!	!	!	!	!	!	!	!	!	!	!	!	!	!	!	!	!	!	!	!
=18	=18	=18	=18	=18	=18	=18	=18	=18	=18	=18	=18	=18	=18	=18	=18	=18	=18	=18	=18	=18	=18	=18	=18	=18	=18	=18	=18	=18	=18	=18	=18	=18
4D|/	.	.	4d\	.	4d/	.	4d/	.	4D\	mun-	4r	.	.	4r	.	4r	.	2.ryy	2.ryy	.	2.ryy	.	4r	.	4r	.	.	.	2.r	.	4r	4r
4BB-/	x x 10	.	4B-/	.	4dd\	.	4dd\	.	4d\	-di	4r	.	.	4r	.	4r	.	.	.	.	.	.	4r	.	4r	.	.	.	.	.	4r	4r
4r	.	.	4r	.	4r	.	4r	.	8B-\	mi-	8f\	Mi-	.	8b-\	Mi-	8dd\	mi-	.	.	.	.	.	8BB-/L	.	8BB-/L	.	.	.	.	.	8bb-\L	8ddd\L
.	.	.	.	.	.	.	.	.	8B-\	-se-	8f\	-se-	.	8b-\	-se-	8dd\	-se-	.	.	.	.	.	8BB-/J	.	8BB-/J	.	.	.	.	.	8bb-\J	8ddd\J
!	!	!	!	!	!	!	!	!	!	!	!LO:LB:g=original	!	!	!	!	!LO:LB:g=original	!	!	!	!	!	!	!	!	!	!	!	!	!	!	!	!
=19	=19	=19	=19	=19	=19	=19	=19	=19	=19	=19	=19	=19	=19	=19	=19	=19	=19	=19	=19	=19	=19	=19	=19	=19	=19	=19	=19	=19	=19	=19	=19	=19
!LO:TX:a:t=1	!	!	!LO:TX:a:t=1	!	!LO:TX:a:t=1	!	!LO:TX:a:t=1.	!	!	!	!	!	!	!	!	!	!	!	!	!	!	!	!	!	!	!	!	!	!	!LO:DY:b:rj:t=p.	!	!
2.r	.	.	2.r	.	2.r	.	2.r	.	4.c\	-re-	4e\	-re-	.	4.a\	-re-	(4.cc\	-re-	2.ryy	2.ryy	2.C/	2.c/	ff	4C/	.	4C/	.	2.gnX/	.	2.ee^\	p	4.aa\	4.ccc\
.	.	.	.	.	.	.	.	.	.	.	4e\	-re	.	.	.	.	.	.	.	.	.	.	4D\	.	4D/	.	.	.	.	.	.	.
.	.	.	.	.	.	.	.	.	8c\	-re	.	.	.	16b-\LL	-re	16dd\LL	-re	.	.	.	.	.	.	.	.	.	.	.	.	.	16bb-\LL	16ddd\LL
.	.	.	.	.	.	.	.	.	.	.	.	.	.	16a\JJ	.	16cc\JJ)	.	.	.	.	.	.	.	.	.	.	.	.	.	.	16aa\JJ	16ccc\JJ
.	.	.	.	.	.	.	.	.	4C/	no-	4e\	no-	.	(16a\LL	no-	(16cc\LL	.	.	.	.	.	.	4E\	.	4E/	.	.	.	.	.	16gg#X\LL	16bbn\LL
.	.	.	.	.	.	.	.	.	.	.	.	.	.	16g\	.	16b-\	.	.	.	.	.	.	.	.	.	.	.	.	.	.	16aa\	16ccc\
.	.	.	.	.	.	.	.	.	.	.	.	.	.	16f\	.	16a\	no-	.	.	.	.	.	.	.	.	.	.	.	.	.	16bb-\	16ddd\
.	.	.	.	.	.	.	.	.	.	.	.	.	.	16e\JJ)	.	16g\JJ)	.	.	.	.	.	.	.	.	.	.	.	.	.	.	16ggn\JJ	16eee\JJ
!	!	!	!	!	!	!	!	!	!LO:LB:g=original	!	!	!	!	!	!	!	!	!	!	!	!	!	!	!	!	!	!	!	!LO:LB:g=original	!	!	!
=20	=20	=20	=20	=20	=20	=20	=20	=20	=20	=20	=20	=20	=20	=20	=20	=20	=20	=20	=20	=20	=20	=20	=20	=20	=20	=20	=20	=20	=20	=20	=20	=20
!	!	!	!	!	!	!	!	!	!	!	!	!	!	!	!	!	!	!	!	!	!	!	!	!LO:DY:rj	!	!LO:DY:rj	!	!	!	!LO:DY:b:rj:t=f.	!	!
4F\	x x 3_	.	4f\	.	16A/LL	.	4r	.	4F\	-bis,	4f\	-bis	.	8f\	-bis	8a\	-bis	2.ryy	2.ryy	2.A/	2.f\	.	2.F\	f	4F\	f	2.a/	f	2.ff\	f	4aa\	4fff\
.	.	.	.	.	16c/	.	.	.	.	.	.	.	.	.	.	.	.	.	.	.	.	.	.	.	.	.	.	.	.	.	.	.
.	.	.	.	.	16f/	.	.	.	.	.	.	.	.	8r	.	8r	.	.	.	.	.	.	.	.	.	.	.	.	.	.	.	.
.	.	.	.	.	16c/JJ	.	.	.	.	.	.	.	.	.	.	.	.	.	.	.	.	.	.	.	.	.	.	.	.	.	.	.
*	*	*	*	*	*rep	*	*	*	*	*	*	*	*	*	*	*	*	*	*	*	*	*	*	*	*	*	*	*	*	*	*	*
4F\	.	.	4f\	.	16A/LL	.	8r	.	4r	.	4r	.	.	4r	.	4r	.	.	.	.	.	.	.	.	2A\	.	.	.	.	.	4r	4r
.	.	.	.	.	16c/	.	.	.	.	.	.	.	.	.	.	.	.	.	.	.	.	.	.	.	.	.	.	.	.	.	.	.
.	.	.	.	.	16f/	.	8cc\	.	.	.	.	.	.	.	.	.	.	.	.	.	.	.	.	.	.	.	.	.	.	.	.	.
.	.	.	.	.	16c/JJ	.	.	.	.	.	.	.	.	.	.	.	.	.	.	.	.	.	.	.	.	.	.	.	.	.	.	.
*	*	*	*	*	*Xrep	*	*	*	*	*	*	*	*	*	*	*	*	*	*	*	*	*	*	*	*	*	*	*	*	*	*	*
*	*	*	*	*	*rep	*	*	*	*	*	*	*	*	*	*	*	*	*	*	*	*	*	*	*	*	*	*	*	*	*	*	*
4F\	.	.	4f\	.	16A/LL	.	16aa|\LL	.	8F\	Mi-	8c\	mi-	.	8a\	mi-	8ff\	mi-	.	.	.	.	.	.	.	.	.	.	.	.	.	8ff\L	8ff\L
.	.	.	.	.	16c/	.	16gg|\J	.	.	.	.	.	.	.	.	.	.	.	.	.	.	.	.	.	.	.	.	.	.	.	.	.
.	.	.	.	.	16f/	.	8ff|\J	.	8F\	-se-	8c\	-se-	.	8a\	-se-	8ff\	-se-	.	.	.	.	.	.	.	.	.	.	.	.	.	8aa\J	8aa\J
.	.	.	.	.	16c/JJ	.	.	.	.	.	.	.	.	.	.	.	.	.	.	.	.	.	.	.	.	.	.	.	.	.	.	.
*	*	*	*	*	*Xrep	*	*	*	*	*	*	*	*	*	*	*	*	*	*	*	*	*	*	*	*	*	*	*	*	*	*	*
!	!	!	!	!	!	!	!	!	!	!	!	!	!	!LO:LB:g=original	!	!	!	!	!	!	!	!	!	!	!	!	!	!	!	!	!	!
=21	=21	=21	=21	=21	=21	=21	=21	=21	=21	=21	=21	=21	=21	=21	=21	=21	=21	=21	=21	=21	=21	=21	=21	=21	=21	=21	=21	=21	=21	=21	=21	=21
*	*	*	*	*	*	*	*	*	*	*	*	*	*	*2\right	*	*2\right	*	*	*	*	*	*	*	*	*	*	*2\right	*	*	*	*	*
4C/	x x 7_	.	4c\	.	16B-/LL	.	16bb-'\LL	.	2C/	-re-	2e\	-re-	.	2b-\	-re-	2gg\	-re-	2.ryy	2.ryy	2.c/	2.g\	.	2.G\	.	2.B-\	.	2.b-\	.	2.gg\	.	2ccc\	2ccc\
.	.	.	.	.	16c/	.	16aa'\J	.	.	.	.	.	.	.	.	.	.	.	.	.	.	.	.	.	.	.	.	.	.	.	.	.
.	.	.	.	.	16e/	.	8gg'\J	.	.	.	.	.	.	.	.	.	.	.	.	.	.	.	.	.	.	.	.	.	.	.	.	.
.	.	.	.	.	16c/JJ	.	.	.	.	.	.	.	.	.	.	.	.	.	.	.	.	.	.	.	.	.	.	.	.	.	.	.
*	*	*	*	*	*rep	*	*	*	*	*	*	*	*	*	*	*	*	*	*	*	*	*	*	*	*	*	*	*	*	*	*	*
4C/	.	.	4c\	.	16B-/LL	.	16gg'\LL	.	.	.	.	.	.	.	.	.	.	.	.	.	.	.	.	.	.	.	.	.	.	.	.	.
.	.	.	.	.	16c/	.	16ff'\J	.	.	.	.	.	.	.	.	.	.	.	.	.	.	.	.	.	.	.	.	.	.	.	.	.
.	.	.	.	.	16e/	.	8ee'\J	.	.	.	.	.	.	.	.	.	.	.	.	.	.	.	.	.	.	.	.	.	.	.	.	.
.	.	.	.	.	16c/JJ	.	.	.	.	.	.	.	.	.	.	.	.	.	.	.	.	.	.	.	.	.	.	.	.	.	.	.
*	*	*	*	*	*Xrep	*	*	*	*	*	*	*	*	*	*	*	*	*	*	*	*	*	*	*	*	*	*	*	*	*	*	*
*	*	*	*	*	*rep	*	*	*	*	*	*	*	*	*	*	*	*	*	*	*	*	*	*	*	*	*	*	*	*	*	*	*
4C/	.	.	4c\	.	16B-/LL	.	16ee'\LL	.	4C/	-re	4e\	-re	.	4b-\	-re	4gg\	-re	.	.	.	.	.	.	.	.	.	.	.	.	.	4ccc\	4ccc\
.	.	.	.	.	16c/	.	16ff'\	.	.	.	.	.	.	.	.	.	.	.	.	.	.	.	.	.	.	.	.	.	.	.	.	.
.	.	.	.	.	16e/	.	16gg'\	.	.	.	.	.	.	.	.	.	.	.	.	.	.	.	.	.	.	.	.	.	.	.	.	.
.	.	.	.	.	16c/JJ	.	16aa'\JJ	.	.	.	.	.	.	.	.	.	.	.	.	.	.	.	.	.	.	.	.	.	.	.	.	.
*	*	*	*	*	*Xrep	*	*	*	*	*	*	*	*	*	*	*	*	*	*	*2\right	*	*	*	*	*	*	*	*	*	*	*	*
!LO:LB:g=original	!	!	!	!	!	!	!LO:LB:g=original	!	!	!	!	!	!	!	!	!	!	!	!	!	!	!	!	!	!	!	!	!	!	!	!LO:LB:g=original	!
=22	=22	=22	=22	=22	=22	=22	=22	=22	=22	=22	=22	=22	=22	=22	=22	=22	=22	=22	=22	=22	=22	=22	=22	=22	=22	=22	=22	=22	=22	=22	=22	=22
4F\	x x 3_	.	4f\	.	16A/LL	.	4ff\	.	4F\	no-	4c\	no-	.	4a\	no-	4ff\	no-	2.ryy	2.ryy	2.f\	2.a\	.	2.F\	.	2.A\	.	2.a\	.	2.ff\	.	4aa\	4aa\
.	.	.	.	.	16c/	.	.	.	.	.	.	.	.	.	.	.	.	.	.	.	.	.	.	.	.	.	.	.	.	.	.	.
.	.	.	.	.	16f/	.	.	.	.	.	.	.	.	.	.	.	.	.	.	.	.	.	.	.	.	.	.	.	.	.	.	.
.	.	.	.	.	16c/JJ	.	.	.	.	.	.	.	.	.	.	.	.	.	.	.	.	.	.	.	.	.	.	.	.	.	.	.
*	*	*	*	*	*rep	*	*	*	*	*	*	*	*	*	*	*	*	*	*	*	*	*	*	*	*	*	*	*	*	*	*	*
4F\	.	.	4f\	.	16A/LL	.	8r	.	4F\	-bis	4c\	-bis	.	4a\	-bis	4ff\	-bis	.	.	.	.	.	.	.	.	.	.	.	.	.	4ff\	4ff\
.	.	.	.	.	16c/	.	.	.	.	.	.	.	.	.	.	.	.	.	.	.	.	.	.	.	.	.	.	.	.	.	.	.
.	.	.	.	.	16f/	.	8cc\	.	.	.	.	.	.	.	.	.	.	.	.	.	.	.	.	.	.	.	.	.	.	.	.	.
.	.	.	.	.	16c/JJ	.	.	.	.	.	.	.	.	.	.	.	.	.	.	.	.	.	.	.	.	.	.	.	.	.	.	.
*	*	*	*	*	*Xrep	*	*	*	*	*	*	*	*	*	*	*	*	*	*	*	*	*	*	*	*	*	*	*	*	*	*	*
*	*	*	*	*	*rep	*	*	*	*	*	*	*	*	*	*	*	*ij	*	*	*	*	*	*	*	*	*	*	*	*	*	*	*
4F\	.	.	4f\	.	16A/LL	.	16aa'\LL	.	8F\	mi-	8c\	mi-	.	8a\	mi-	8ff\	mi-	.	.	.	.	.	.	.	.	.	.	.	.	.	4r	4r
.	.	.	.	.	16c/	.	16gg'\J	.	.	.	.	.	.	.	.	.	.	.	.	.	.	.	.	.	.	.	.	.	.	.	.	.
.	.	.	.	.	16f/	.	8ff\J	.	8F\	-se-	8c\	-se-	.	8a\	-se-	8ff\	-se-	.	.	.	.	.	.	.	.	.	.	.	.	.	.	.
.	.	.	.	.	16c/JJ	.	.	.	.	.	.	.	.	.	.	.	.	.	.	.	.	.	.	.	.	.	.	.	.	.	.	.
*	*	*	*	*	*Xrep	*	*	*	*	*	*	*	*	*	*	*	*	*	*	*	*	*	*	*	*	*	*	*	*	*	*	*
!	!	!	!	!	!	!	!	!	!	!	!	!	!	!	!	!	!	!	!	!	!	!	!	!	!	!	!LO:LB:g=original	!	!	!	!	!
=23	=23	=23	=23	=23	=23	=23	=23	=23	=23	=23	=23	=23	=23	=23	=23	=23	=23	=23	=23	=23	=23	=23	=23	=23	=23	=23	=23	=23	=23	=23	=23	=23
*	*	*	*	*	*	*	*	*	*2\right	*	*	*	*	*	*	*	*	*	*	*	*	*	*	*	*	*	*	*	*	*	*	*
4G\	x x 5	.	4g\	.	16d/LL	.	16ff'\LL	.	2G\	-re-	2Bn\	-re-	.	2f\	-re-	2dd\	-re-	2.ryy	2.ryy	2.g\	2.g\	.	2.D\	.	2.Bn\	.	2.bn\	.	2.dd\	.	2ff\	2ddd\
.	.	.	.	.	16f/	.	16ee'\J	.	.	.	.	.	.	.	.	.	.	.	.	.	.	.	.	.	.	.	.	.	.	.	.	.
.	.	.	.	.	16g/	.	8dd'\J	.	.	.	.	.	.	.	.	.	.	.	.	.	.	.	.	.	.	.	.	.	.	.	.	.
.	.	.	.	.	16f/JJ	.	.	.	.	.	.	.	.	.	.	.	.	.	.	.	.	.	.	.	.	.	.	.	.	.	.	.
*	*	*	*	*	*rep	*	*	*	*	*	*	*	*	*	*	*	*	*	*	*	*	*	*	*	*	*	*	*	*	*	*	*
4G\	.	.	4g\	.	16d/LL	.	16dd'\LL	.	.	.	.	.	.	.	.	.	.	.	.	.	.	.	.	.	.	.	.	.	.	.	.	.
.	.	.	.	.	16f/	.	16cc'\J	.	.	.	.	.	.	.	.	.	.	.	.	.	.	.	.	.	.	.	.	.	.	.	.	.
.	.	.	.	.	16g/	.	8bn'\J	.	.	.	.	.	.	.	.	.	.	.	.	.	.	.	.	.	.	.	.	.	.	.	.	.
*	*	*	*	*	*Xrep	*	*	*	*	*	*	*	*	*	*	*	*	*	*	*	*	*	*	*	*	*	*	*	*	*	*	*
*	*	*	*	*	*rep	*	*	*	*	*	*	*	*	*	*	*	*	*	*	*	*	*	*	*	*	*	*	*	*	*	*	*
.	.	.	.	.	16f/JJ	.	.	.	.	.	.	.	.	.	.	.	.	.	.	.	.	.	.	.	.	.	.	.	.	.	.	.
4GG/	.	.	4G/	.	16d/LL	.	16b'\LL	.	4G\	-re	4B\	-re	.	4f\	-re	4dd\	-re	.	.	.	.	.	.	.	.	.	.	.	.	.	4ff\	4ddd\
.	.	.	.	.	16f/	.	16cc'\	.	.	.	.	.	.	.	.	.	.	.	.	.	.	.	.	.	.	.	.	.	.	.	.	.
.	.	.	.	.	16g/	.	16dd'\	.	.	.	.	.	.	.	.	.	.	.	.	.	.	.	.	.	.	.	.	.	.	.	.	.
.	.	.	.	.	16f/JJ	.	16ee'\JJ	.	.	.	.	.	.	.	.	.	.	.	.	.	.	.	.	.	.	.	.	.	.	.	.	.
*	*	*	*	*	*Xrep	*	*	*	*	*	*	*	*	*	*	*	*	*	*	*	*	*	*	*	*	*	*	*	*	*	*	*
=24	=24	=24	=24	=24	=24	=24	=24	=24	=24	=24	=24	=24	=24	=24	=24	=24	=24	=24	=24	=24	=24	=24	=24	=24	=24	=24	=24	=24	=24	=24	=24	=24
4C|>/	.	.	4c\	.	4e/	.	4cc\	.	4C/	no-	4c\	no-	.	4f\	no-	4cc\	no-	2.ryy	2.ryy	4c/	4g\	.	4E\	.	4c\	.	4cc\	.	4ee\	.	4ee\	4ccc\
4C|>/	.	.	4C/	.	4ee 4cc 4e 4G/	.	4ccc 4ee 4g\	.	4C/	-bis	4c\	-bis	.	4e\	-bis	4cc\	-bis	.	.	4c/	4g\	.	4E\	.	4c\	.	4cc\	.	4ee\	.	4ee\	4ccc\
*	*	*	*	*	*	*	*	*	*	*	*	*	*	*	*	*	*Xij	*	*	*	*	*	*	*	*	*	*	*	*	*	*	*
!LO:TX:a:t=Solo	!	!	!	!	!	!	!	!	!	!	!LO:TX:a:t=Solo	!	!	!	!	!	!	!	!	!	!	!	!	!	!	!	!	!	!	!	!	!
4r	.	.	4r	.	4r	.	4r	.	4r	.	4G\	qui	.	4r	.	4r	.	.	.	4r	4r	.	4r	.	4r	.	4r	.	4r	.	4r	4r
!	!	!	!	!	!LO:PB:g=original	!	!	!	!	!	!	!	!	!	!	!	!	!	!	!	!	!	!	!	!	!	!	!	!	!	!	!LO:LB:g=original
=25	=25	=25	=25	=25	=25	=25	=25	=25	=25	=25	=25	=25	=25	=25	=25	=25	=25	=25	=25	=25	=25	=25	=25	=25	=25	=25	=25	=25	=25	=25	=25	=25
!	!	!	!	!	!	!	!	!	!LO:TX:a:t=16.	!	!	!	!	!LO:TX:a:t=16.	!	!LO:TX:b:t=16	!	!	!	!	!	!	!LO:TX:a:t=16.	!	!LO:TX:a:t=16.	!	!LO:TX:a:t=16.	!	!	!	!LO:TX:a:t=16	!LO:TX:a:t=16
!	!	!LO:DY:t=pia	!	!	!	!	!	!	!LO:N:vis=00	!	!	!	!	!LO:N:vis=00	!	!LO:TX:a:t=16	!	!	!	!LO:TX:a:t=16	!LO:TX:a:t=16	!	!LO:N:vis=00	!	!LO:N:vis=00	!	!LO:N:vis=00	!	!LO:TX:a:t=16.	!	!LO:N:vis=00	!LO:N:vis=00
4C/	.	p	4c\	.	8r	.	8r	.	0.r	.	4.e\	tol-	.	0.r	.	2.r	.	2.ryy	2.ryy	2.r	2.r	.	0.r	.	0.r	.	0.r	.	2.r	.	0.r	0.r
!	!	!	!	!	!	!LO:DY:b:rj:t=p.	!	!	!	!	!	!	!	!	!	!	!	!	!	!	!	!	!	!	!	!	!	!	!	!	!	!
.	.	.	.	.	8e/L	p	8g'/L	.	.	.	.	.	.	.	.	.	.	.	.	.	.	.	.	.	.	.	.	.	.	.	.	.
4r	.	.	4r	.	8e/	.	8g'/	.	.	.	.	.	.	.	.	.	.	.	.	.	.	.	.	.	.	.	.	.	.	.	.	.
.	.	.	.	.	8e/	.	8g'/	.	.	.	8d\	-lis	.	.	.	.	.	.	.	.	.	.	.	.	.	.	.	.	.	.	.	.
!	!	!	!	!LO:DY:b:rj	!	!	!	!	!	!	!	!	!	!	!	!	!	!	!	!	!	!	!	!	!	!	!	!	!	!	!	!
4E\	x x -5	.	4c\	p	8f/	.	(8a/	.	.	.	8c\	pec-	.	.	.	.	.	.	.	.	.	.	.	.	.	.	.	.	.	.	.	.
.	.	.	.	.	8g/J	.	8b-X/J)	.	.	.	8B-X\	.	.	.	.	.	.	.	.	.	.	.	.	.	.	.	.	.	.	.	.	.
!	!	!	!	!	!	!	!	!	!	!	!LO:LB:g=original	!	!	!	!	!	!	!	!	!	!	!	!	!	!	!	!	!	!	!	!	!
=26	=26	=26	=26	=26	=26	=26	=26	=26	=26	=26	=26	=26	=26	=26	=26	=26	=26	=26	=26	=26	=26	=26	=26	=26	=26	=26	=26	=26	=26	=26	=26	=26
4F\	x x 3_	.	4f\	.	8r	.	8r	.	.	.	8B-\L	-ca-	.	.	.	2.r	.	2.ryy	2.ryy	2.r	2.r	.	.	.	.	.	.	.	2.r	.	.	.
.	.	.	.	.	8f/L	.	8a'/L	.	.	.	8A\J	.	.	.	.	.	.	.	.	.	.	.	.	.	.	.	.	.	.	.	.	.
4FF/	.	.	4F/	.	8f/	.	8a'/	.	.	.	8A\	-ta	.	.	.	.	.	.	.	.	.	.	.	.	.	.	.	.	.	.	.	.
.	.	.	.	.	8f/	.	8a'/	.	.	.	8A\	.	.	.	.	.	.	.	.	.	.	.	.	.	.	.	.	.	.	.	.	.
4r	x x x	.	4r	.	8e/	.	(8b-/	.	.	.	8B-\	tol-	.	.	.	.	.	.	.	.	.	.	.	.	.	.	.	.	.	.	.	.
.	.	.	.	.	8g/J	.	8cc#X/J)	.	.	.	8c#X\	-lis	.	.	.	.	.	.	.	.	.	.	.	.	.	.	.	.	.	.	.	.
=27	=27	=27	=27	=27	=27	=27	=27	=27	=27	=27	=27	=27	=27	=27	=27	=27	=27	=27	=27	=27	=27	=27	=27	=27	=27	=27	=27	=27	=27	=27	=27	=27
4F\	x x 6	.	4f\	.	8r	.	8r	.	.	.	(4.d\	pec-	.	.	.	2.r	.	2.ryy	2.ryy	2.r	2.r	.	.	.	.	.	.	.	2.r	.	.	.
.	.	.	.	.	8a/	.	8dd'\L	.	.	.	.	.	.	.	.	.	.	.	.	.	.	.	.	.	.	.	.	.	.	.	.	.
*	*	*	*	*	*tremolo	*	*	*	*	*	*	*	*	*	*	*	*	*	*	*	*	*	*	*	*	*	*	*	*	*	*	*
4r	.	.	4r	.	8a/L	.	(8dd\	.	.	.	.	.	.	.	.	.	.	.	.	.	.	.	.	.	.	.	.	.	.	.	.	.
.	.	.	.	.	8a/	.	8dd#X\)	.	.	.	8d#X\)	.	.	.	.	.	.	.	.	.	.	.	.	.	.	.	.	.	.	.	.	.
4F#X\	x x 5	.	4f#X\	.	8a/	.	(8ee\	.	.	.	8e\L	-ca-	.	.	.	.	.	.	.	.	.	.	.	.	.	.	.	.	.	.	.	.
.	.	.	.	.	8a/J	.	8ccn\J)	.	.	.	8c\J	-ta	.	.	.	.	.	.	.	.	.	.	.	.	.	.	.	.	.	.	.	.
*	*	*	*	*	*Xtremolo	*	*	*	*	*	*	*	*	*	*	*	*	*	*	*	*	*	*	*	*	*	*	*	*	*	*	*
!LO:LB:g=original	!	!	!	!	!	!	!	!	!	!	!	!	!	!	!	!	!	!	!	!	!	!	!	!	!	!	!	!	!	!	!	!
=28	=28	=28	=28	=28	=28	=28	=28	=28	=28	=28	=28	=28	=28	=28	=28	=28	=28	=28	=28	=28	=28	=28	=28	=28	=28	=28	=28	=28	=28	=28	=28	=28
4G\	x x 4	.	4g\	.	8e/L	.	(8cc\L	.	.	.	(8c\L	mun-	.	.	.	2.r	.	2.ryy	2.ryy	2.r	2.r	.	.	.	.	.	.	.	2.r	.	.	.
.	.	.	.	.	8d/J	.	8bn\J)	.	.	.	8Bn\J)	.	.	.	.	.	.	.	.	.	.	.	.	.	.	.	.	.	.	.	.	.
4GG/	x x n	.	4G/	.	4d/	.	4b\	.	.	.	4B\	-di	.	.	.	.	.	.	.	.	.	.	.	.	.	.	.	.	.	.	.	.
4r	.	.	4r	.	4r	.	4r	.	.	.	8G\	mi-	.	.	.	.	.	.	.	.	.	.	.	.	.	.	.	.	.	.	.	.
.	.	.	.	.	.	.	.	.	.	.	8G\	-se-	.	.	.	.	.	.	.	.	.	.	.	.	.	.	.	.	.	.	.	.
!	!	!	!LO:LB:g=original	!	!	!	!	!	!	!	!	!	!	!	!	!	!	!	!	!	!	!	!	!	!	!	!	!	!	!	!	!
=29	=29	=29	=29	=29	=29	=29	=29	=29	=29	=29	=29	=29	=29	=29	=29	=29	=29	=29	=29	=29	=29	=29	=29	=29	=29	=29	=29	=29	=29	=29	=29	=29
!	!	!	!	!	!	!	!LO:TX:t=P:problem:niezgodność harmoniczna w takcie	!	!LO:N:vis=00	!	!	!	!	!LO:N:vis=00	!	!	!	!	!	!	!	!	!LO:N:vis=00	!	!LO:N:vis=00	!	!LO:N:vis=00	!	!	!	!LO:N:vis=00	!LO:N:vis=00
4C/	.	.	4c\	.	8r	.	8r	.	0.r	.	4.e\	-re-	.	0.r	.	2.r	.	2.ryy	2.ryy	2.r	2.r	.	0.r	.	0.r	.	0.r	.	2.r	.	0.r	0.r
.	.	.	.	.	8e/L	.	8g'/	.	.	.	.	.	.	.	.	.	.	.	.	.	.	.	.	.	.	.	.	.	.	.	.	.
!	!	!	!	!	!	!	!LO:LB:g=original	!	!	!	!	!	!	!	!	!	!	!	!	!	!	!	!	!	!	!	!	!	!	!	!	!
4r	.	.	4r	.	8e/	.	8g|/L	.	.	.	.	.	.	.	.	.	.	.	.	.	.	.	.	.	.	.	.	.	.	.	.	.
.	.	.	.	.	8e/	.	8g|/	.	.	.	8d\	.	.	.	.	.	.	.	.	.	.	.	.	.	.	.	.	.	.	.	.	.
4E\	x x -5	.	4e\	.	8f/	.	(8a/	.	.	.	8c\L	-re	.	.	.	.	.	.	.	.	.	.	.	.	.	.	.	.	.	.	.	.
.	.	.	.	.	8g/J	.	8b-X/J)	.	.	.	8B-X\J	.	.	.	.	.	.	.	.	.	.	.	.	.	.	.	.	.	.	.	.	.
=30	=30	=30	=30	=30	=30	=30	=30	=30	=30	=30	=30	=30	=30	=30	=30	=30	=30	=30	=30	=30	=30	=30	=30	=30	=30	=30	=30	=30	=30	=30	=30	=30
4Fn\	x x 3_	.	4f\	.	4f/	.	4a/	.	.	.	8A\	mi-	.	.	.	2.r	.	2.ryy	2.ryy	2.r	2.r	.	.	.	.	.	.	.	2.r	.	.	.
.	.	.	.	.	.	.	.	.	.	.	(16B-\LL	.	.	.	.	.	.	.	.	.	.	.	.	.	.	.	.	.	.	.	.	.
.	.	.	.	.	.	.	.	.	.	.	16c#X\JJ)	.	.	.	.	.	.	.	.	.	.	.	.	.	.	.	.	.	.	.	.	.
4r	.	.	4r	.	4r	.	4r	.	.	.	16d\LL	-se-	.	.	.	.	.	.	.	.	.	.	.	.	.	.	.	.	.	.	.	.
.	.	.	.	.	.	.	.	.	.	.	16c#\	.	.	.	.	.	.	.	.	.	.	.	.	.	.	.	.	.	.	.	.	.
.	.	.	.	.	.	.	.	.	.	.	16d\	-re-	.	.	.	.	.	.	.	.	.	.	.	.	.	.	.	.	.	.	.	.
.	.	.	.	.	.	.	.	.	.	.	16e\JJ	.	.	.	.	.	.	.	.	.	.	.	.	.	.	.	.	.	.	.	.	.
4F\	.	.	4f\	.	8a/L	.	8ff\L	.	.	.	8f\L	.	.	.	.	.	.	.	.	.	.	.	.	.	.	.	.	.	.	.	.	.
.	.	.	.	.	8f/J	.	8dd\J	.	.	.	8d\J	-re	.	.	.	.	.	.	.	.	.	.	.	.	.	.	.	.	.	.	.	.
!	!	!	!	!	!	!	!	!	!	!	!LO:LB:g=original	!	!	!	!	!	!	!	!	!	!	!	!	!	!	!	!	!	!	!	!	!
=31	=31	=31	=31	=31	=31	=31	=31	=31	=31	=31	=31	=31	=31	=31	=31	=31	=31	=31	=31	=31	=31	=31	=31	=31	=31	=31	=31	=31	=31	=31	=31	=31
4G\	x 6_ 4_	.	4g\	.	8r	.	8r	.	.	.	4.g\	no-	.	.	.	2.r	.	2.ryy	2.ryy	2.r	2.r	.	.	.	.	.	.	.	2.r	.	.	.
.	.	.	.	.	8e/L	.	8cc'\L	.	.	.	.	.	.	.	.	.	.	.	.	.	.	.	.	.	.	.	.	.	.	.	.	.
4G\	.	.	4g\	.	8e/	.	8cc'\	.	.	.	.	.	.	.	.	.	.	.	.	.	.	.	.	.	.	.	.	.	.	.	.	.
.	.	.	.	.	8e/	.	8cc'\	.	.	.	16e\LL	.	.	.	.	.	.	.	.	.	.	.	.	.	.	.	.	.	.	.	.	.
.	.	.	.	.	.	.	.	.	.	.	16c\JJ	.	.	.	.	.	.	.	.	.	.	.	.	.	.	.	.	.	.	.	.	.
4GG/	x 5 n	.	4G/	.	8d/	.	8bn'\	.	.	.	16Bn\LL	.	.	.	.	.	.	.	.	.	.	.	.	.	.	.	.	.	.	.	.	.
.	.	.	.	.	.	.	.	.	.	.	16f\	.	.	.	.	.	.	.	.	.	.	.	.	.	.	.	.	.	.	.	.	.
.	.	.	.	.	8d/J	.	8b'\J	.	.	.	16d\	.	.	.	.	.	.	.	.	.	.	.	.	.	.	.	.	.	.	.	.	.
.	.	.	.	.	.	.	.	.	.	.	16B\JJ	.	.	.	.	.	.	.	.	.	.	.	.	.	.	.	.	.	.	.	.	.
=32	=32	=32	=32	=32	=32	=32	=32	=32	=32	=32	=32	=32	=32	=32	=32	=32	=32	=32	=32	=32	=32	=32	=32	=32	=32	=32	=32	=32	=32	=32	=32	=32
8C|>/	.	.	8c\	.	8r	.	8r	.	.	.	4c\	-bis	.	.	.	2.r	.	2.ryy	2.ryy	2.r	2.r	.	.	.	.	.	.	.	2.r	.	.	.
8r	.	.	8r	.	8e 8G/	.	8cc\	.	.	.	.	.	.	.	.	.	.	.	.	.	.	.	.	.	.	.	.	.	.	.	.	.
8C|>/	.	.	8c\	.	8r	.	8r	.	.	.	4r	.	.	.	.	.	.	.	.	.	.	.	.	.	.	.	.	.	.	.	.	.
!	!	!	!	!	!LO:LB:g=original	!	!	!	!	!	!	!	!	!	!	!	!	!	!	!	!	!	!	!	!	!	!	!	!	!	!	!
8r	.	.	8r	.	8e 8G/	.	8cc\	.	.	.	.	.	.	.	.	.	.	.	.	.	.	.	.	.	.	.	.	.	.	.	.	.
8C|>/	.	.	8c\	.	8r	.	8r	.	.	.	8c\L	qui	.	.	.	.	.	.	.	.	.	.	.	.	.	.	.	.	.	.	.	.
8r	.	.	8r	.	8e 8G/	.	8cc\	.	.	.	8e\J	.	.	.	.	.	.	.	.	.	.	.	.	.	.	.	.	.	.	.	.	.
=33	=33	=33	=33	=33	=33	=33	=33	=33	=33	=33	=33	=33	=33	=33	=33	=33	=33	=33	=33	=33	=33	=33	=33	=33	=33	=33	=33	=33	=33	=33	=33	=33
!	!	!	!	!	!	!	!	!	!LO:N:vis=00	!	!	!	!	!LO:N:vis=00	!	!	!	!	!	!	!	!	!LO:N:vis=00	!	!LO:N:vis=00	!	!LO:N:vis=00	!	!	!	!LO:N:vis=00	!LO:N:vis=00
4C/	x x -7	.	8r	.	8r	.	8r	.	0.r	.	4.g\	tol-	.	0.r	.	2.r	.	2.ryy	2.ryy	2.r	2.r	.	0.r	.	0.r	.	0.r	.	2.r	.	0.r	0.r
.	.	.	8e\	.	8g 8c/	.	8b-X\	.	.	.	.	.	.	.	.	.	.	.	.	.	.	.	.	.	.	.	.	.	.	.	.	.
*	*	*	*tremolo	*	*	*	*2\right	*	*	*	*	*	*	*	*	*	*	*	*	*	*	*	*	*	*	*	*	*	*	*	*	*
*	*	*	*2\right	*	*tremolo	*	*tremolo	*	*	*	*	*	*	*	*	*	*	*	*	*	*	*	*	*	*	*	*	*	*	*	*	*
!	!	!	!	!	!	!	!LO:TX:t=P:problem:tremolo-dots	!	!	!	!	!	!	!	!	!	!	!	!	!	!	!	!	!	!	!	!	!	!	!	!	!
4r	.	.	8e\L	.	8g 8c/L	.	8b-'\L	.	.	.	.	.	.	.	.	.	.	.	.	.	.	.	.	.	.	.	.	.	.	.	.	.
.	.	.	8e\	.	8g 8c/	.	8b-'\	.	.	.	8e\	-lis	.	.	.	.	.	.	.	.	.	.	.	.	.	.	.	.	.	.	.	.
4C/	.	.	8e\	.	8g 8c/	.	8b-'\	.	.	.	8c\L	pec-	.	.	.	.	.	.	.	.	.	.	.	.	.	.	.	.	.	.	.	.
.	.	.	8e\J	.	8g 8c/J	.	8b-'\J	.	.	.	8B-X\J	.	.	.	.	.	.	.	.	.	.	.	.	.	.	.	.	.	.	.	.	.
*	*	*	*Xtremolo	*	*Xtremolo	*	*Xtremolo	*	*	*	*	*	*	*	*	*	*	*	*	*	*	*	*	*	*	*	*	*	*	*	*	*
!LO:LB:g=original	!	!	!	!	!	!	!	!	!	!	!	!	!	!	!	!	!	!	!	!	!	!	!	!	!	!	!	!	!	!	!	!
=34	=34	=34	=34	=34	=34	=34	=34	=34	=34	=34	=34	=34	=34	=34	=34	=34	=34	=34	=34	=34	=34	=34	=34	=34	=34	=34	=34	=34	=34	=34	=34	=34
4F\	x x 3	.	8r	.	8r	.	8r	.	.	.	8B-\L	-ca-	.	.	.	2.r	.	2.ryy	2.ryy	2.r	2.r	.	.	.	.	.	.	.	2.r	.	.	.
.	.	.	8c\	.	8f 8c/	.	8a/	.	.	.	8A\J	.	.	.	.	.	.	.	.	.	.	.	.	.	.	.	.	.	.	.	.	.
*	*	*	*tremolo	*	*tremolo	*	*tremolo	*	*	*	*	*	*	*	*	*	*	*	*	*	*	*	*	*	*	*	*	*	*	*	*	*
4r	.	.	8c\L	.	8f 8c/L	.	8a/L	.	.	.	4A\	-ta	.	.	.	.	.	.	.	.	.	.	.	.	.	.	.	.	.	.	.	.
.	.	.	8c\	.	8f 8c/	.	8a/	.	.	.	.	.	.	.	.	.	.	.	.	.	.	.	.	.	.	.	.	.	.	.	.	.
4F\	.	.	8c\	.	8f 8c/	.	8a/	.	.	.	8A\L	pec-	.	.	.	.	.	.	.	.	.	.	.	.	.	.	.	.	.	.	.	.
.	.	.	8c\J	.	8f 8c/J	.	8a/J	.	.	.	8c#X\J	.	.	.	.	.	.	.	.	.	.	.	.	.	.	.	.	.	.	.	.	.
*	*	*	*Xtremolo	*	*Xtremolo	*	*Xtremolo	*	*	*	*	*	*	*	*	*	*	*	*	*	*	*	*	*	*	*	*	*	*	*	*	*
=35	=35	=35	=35	=35	=35	=35	=35	=35	=35	=35	=35	=35	=35	=35	=35	=35	=35	=35	=35	=35	=35	=35	=35	=35	=35	=35	=35	=35	=35	=35	=35	=35
4AA/	x 7 #	.	8r	.	8r	.	8r	.	.	.	4.e\	-ca-	.	.	.	2.r	.	2.ryy	2.ryy	2.r	2.r	.	.	.	.	.	.	.	2.r	.	.	.
.	.	.	8A/	.	8e 8c#X/	.	8g/	.	.	.	.	.	.	.	.	.	.	.	.	.	.	.	.	.	.	.	.	.	.	.	.	.
*	*	*	*tremolo	*	*tremolo	*	*tremolo	*	*	*	*	*	*	*	*	*	*	*	*	*	*	*	*	*	*	*	*	*	*	*	*	*
4r	.	.	8A/L	.	8e 8c#/L	.	8g/L	.	.	.	.	.	.	.	.	.	.	.	.	.	.	.	.	.	.	.	.	.	.	.	.	.
.	.	.	8A/	.	8e 8c#/	.	8g/	.	.	.	8c#X\	.	.	.	.	.	.	.	.	.	.	.	.	.	.	.	.	.	.	.	.	.
4AA/	.	.	8A/	.	8e 8c#/	.	8g/	.	.	.	8A/L	-ta	.	.	.	.	.	.	.	.	.	.	.	.	.	.	.	.	.	.	.	.
.	.	.	8A/J	.	8e 8c#/J	.	8g/J	.	.	.	8G/J	.	.	.	.	.	.	.	.	.	.	.	.	.	.	.	.	.	.	.	.	.
*	*	*	*Xtremolo	*	*Xtremolo	*	*Xtremolo	*	*	*	*	*	*	*	*	*	*	*	*	*	*	*	*	*	*	*	*	*	*	*	*	*
=36	=36	=36	=36	=36	=36	=36	=36	=36	=36	=36	=36	=36	=36	=36	=36	=36	=36	=36	=36	=36	=36	=36	=36	=36	=36	=36	=36	=36	=36	=36	=36	=36
4D\	x x 3	.	4d\	.	4A/	.	8g/L	.	.	.	8G/L	mun-	.	.	.	2.r	.	2.ryy	2.ryy	2.r	2.r	.	.	.	.	.	.	.	2.r	.	.	.
.	.	.	.	.	.	.	8f/J	.	.	.	8F/J	.	.	.	.	.	.	.	.	.	.	.	.	.	.	.	.	.	.	.	.	.
4DD/	.	.	4D/	.	4A/	.	4f/	.	.	.	4F/	-di	.	.	.	.	.	.	.	.	.	.	.	.	.	.	.	.	.	.	.	.
!	!	!	!	!	!	!	!	!	!	!	!LO:LB:g=original	!	!	!	!	!	!	!	!	!	!	!	!	!	!	!	!	!	!	!	!	!
4r	.	.	4r	.	4r	.	4r	.	.	.	8A\	mi-	.	.	.	.	.	.	.	.	.	.	.	.	.	.	.	.	.	.	.	.
.	.	.	.	.	.	.	.	.	.	.	8A\	-se-	.	.	.	.	.	.	.	.	.	.	.	.	.	.	.	.	.	.	.	.
=37	=37	=37	=37	=37	=37	=37	=37	=37	=37	=37	=37	=37	=37	=37	=37	=37	=37	=37	=37	=37	=37	=37	=37	=37	=37	=37	=37	=37	=37	=37	=37	=37
!	!	!	!	!	!	!	!	!	!LO:N:vis=00	!	!	!	!	!LO:N:vis=00	!	!	!	!	!	!	!	!	!LO:N:vis=00	!	!LO:N:vis=00	!	!LO:N:vis=00	!	!	!	!LO:N:vis=00	!LO:N:vis=00
8r	.	.	8r	.	8r	.	8r	.	0.r	.	4.d\	-re-	.	0.r	.	2.r	.	2.ryy	2.ryy	2.r	2.r	.	0.r	.	0.r	.	0.r	.	2.r	.	0.r	0.r
8G#X\	7 5 n	.	8bn\	.	8f/	.	8dd\	.	.	.	.	.	.	.	.	.	.	.	.	.	.	.	.	.	.	.	.	.	.	.	.	.
*tremolo	*	*	*tremolo	*	*tremolo	*	*tremolo	*	*	*	*	*	*	*	*	*	*	*	*	*	*	*	*	*	*	*	*	*	*	*	*	*
8G#\L	.	.	8b\L	.	8f/L	.	8dd\L	.	.	.	.	.	.	.	.	.	.	.	.	.	.	.	.	.	.	.	.	.	.	.	.	.
8G#\	.	.	8b\	.	8f/	.	8dd\	.	.	.	8e\	-re	.	.	.	.	.	.	.	.	.	.	.	.	.	.	.	.	.	.	.	.
!	!	!	!	!	!	!	!	!	!	!	!LO:TX:t=P:problem:mixed beam	!	!	!	!	!	!	!	!	!	!	!	!	!	!	!	!	!	!	!	!	!
8G#\	.	.	8b\	.	8f/	.	8dd\	.	.	.	8f\L	no-	.	.	.	.	.	.	.	.	.	.	.	.	.	.	.	.	.	.	.	.
8G#\J	.	.	8b\J	.	8f/J	.	8dd\J	.	.	.	8G#X/J	.	.	.	.	.	.	.	.	.	.	.	.	.	.	.	.	.	.	.	.	.
*Xtremolo	*	*	*Xtremolo	*	*Xtremolo	*	*Xtremolo	*	*	*	*	*	*	*	*	*	*	*	*	*	*	*	*	*	*	*	*	*	*	*	*	*
!	!	!	!LO:LB:g=original	!	!	!	!LO:LB:g=original	!	!	!	!	!	!	!	!	!	!	!	!	!	!	!	!	!	!	!	!	!	!	!	!	!
=38	=38	=38	=38	=38	=38	=38	=38	=38	=38	=38	=38	=38	=38	=38	=38	=38	=38	=38	=38	=38	=38	=38	=38	=38	=38	=38	=38	=38	=38	=38	=38	=38
4A\	x x #	.	4a\	.	4e/	.	8cc#X|\L	.	.	.	4A\	-bis	.	.	.	2.r	.	2.ryy	2.ryy	2.r	2.r	.	.	.	.	.	.	.	2.r	.	.	.
.	.	.	.	.	.	.	8a|\	.	.	.	.	.	.	.	.	.	.	.	.	.	.	.	.	.	.	.	.	.	.	.	.	.
4AA/	.	.	4A/	.	4e/	.	(8cc#\	.	.	.	4r	.	.	.	.	.	.	.	.	.	.	.	.	.	.	.	.	.	.	.	.	.
.	.	.	.	.	.	.	8ee\)	.	.	.	.	.	.	.	.	.	.	.	.	.	.	.	.	.	.	.	.	.	.	.	.	.
4r	.	.	4r	.	4r	.	(8gg#X\	.	.	.	8A\	mi-	.	.	.	.	.	.	.	.	.	.	.	.	.	.	.	.	.	.	.	.
.	.	.	.	.	.	.	8aa\J)	.	.	.	8A\	-se-	.	.	.	.	.	.	.	.	.	.	.	.	.	.	.	.	.	.	.	.
=39	=39	=39	=39	=39	=39	=39	=39	=39	=39	=39	=39	=39	=39	=39	=39	=39	=39	=39	=39	=39	=39	=39	=39	=39	=39	=39	=39	=39	=39	=39	=39	=39
8r	.	.	8r	.	8r	.	8r	.	.	.	2d\	-re-	.	.	.	2.r	.	2.ryy	2.ryy	2.r	2.r	.	.	.	.	.	.	.	2.r	.	.	.
8G#X\	7_ 5_ n_	.	8bn\	.	8f/	.	8dd\	.	.	.	.	.	.	.	.	.	.	.	.	.	.	.	.	.	.	.	.	.	.	.	.	.
*tremolo	*	*	*tremolo	*	*tremolo	*	*tremolo	*	*	*	*	*	*	*	*	*	*	*	*	*	*	*	*	*	*	*	*	*	*	*	*	*
8G#\L	.	.	8b\L	.	8f/L	.	8dd\L	.	.	.	.	.	.	.	.	.	.	.	.	.	.	.	.	.	.	.	.	.	.	.	.	.
8G#\	.	.	8b\	.	8f/	.	8dd\	.	.	.	.	.	.	.	.	.	.	.	.	.	.	.	.	.	.	.	.	.	.	.	.	.
8G#\	.	.	8b\	.	8f/	.	8dd\	.	.	.	4G#X/	-re	.	.	.	.	.	.	.	.	.	.	.	.	.	.	.	.	.	.	.	.
8G#\J	.	.	8b\J	.	8f/J	.	8dd\J	.	.	.	.	.	.	.	.	.	.	.	.	.	.	.	.	.	.	.	.	.	.	.	.	.
*Xtremolo	*	*	*Xtremolo	*	*Xtremolo	*	*Xtremolo	*	*	*	*	*	*	*	*	*	*	*	*	*	*	*	*	*	*	*	*	*	*	*	*	*
!LO:LB:g=original	!	!	!	!	!	!	!	!	!	!	!	!	!	!	!	!	!	!	!	!	!	!	!	!	!	!	!	!	!	!	!	!
=40	=40	=40	=40	=40	=40	=40	=40	=40	=40	=40	=40	=40	=40	=40	=40	=40	=40	=40	=40	=40	=40	=40	=40	=40	=40	=40	=40	=40	=40	=40	=40	=40
4A\	x x #	.	4a\	.	4e/	.	4cc#X\	.	.	.	4A\	no-	.	.	.	2.r	.	2.ryy	2.ryy	2.r	2.r	.	.	.	.	.	.	.	2.r	.	.	.
8A|\L	.	.	8a\L	.	4cc#X 4e 4A/	.	4aa 4cc# 4e\	.	.	.	4A\	-bis	.	.	.	.	.	.	.	.	.	.	.	.	.	.	.	.	.	.	.	.
8Gn|\	.	.	8g\	.	.	.	.	.	.	.	.	.	.	.	.	.	.	.	.	.	.	.	.	.	.	.	.	.	.	.	.	.
8F|\	.	.	8f\	.	4r	.	4r	.	.	.	4r	.	.	.	.	.	.	.	.	.	.	.	.	.	.	.	.	.	.	.	.	.
8E|\J	.	.	8e\J	.	.	.	.	.	.	.	.	.	.	.	.	.	.	.	.	.	.	.	.	.	.	.	.	.	.	.	.	.
!	!	!	!	!	!LO:LB:g=original	!	!	!	!LO:LB:g=original	!	!	!	!	!	!	!	!	!	!	!	!	!	!	!	!	!	!	!	!	!	!	!
=41	=41	=41	=41	=41	=41	=41	=41	=41	=41	=41	=41	=41	=41	=41	=41	=41	=41	=41	=41	=41	=41	=41	=41	=41	=41	=41	=41	=41	=41	=41	=41	=41
!	!	!	!	!	!LO:TX:a:t=1	!	!LO:TX:a:t=1.	!	!	!	!	!	!LO:DY:a:rj	!	!	!	!	!	!	!	!	!	!	!	!	!	!	!	!	!LO:DY:b:t=f.	!	!
4D|\	.	.	4d\	.	2.r	.	2.r	.	2D\	Suſ-	2d\	Sus-	f	2a\	Sus-	2ff\	Sus-	2.ryy	2.ryy	2A/	2a\	f	2d\	.	2.f\	.	2dd\	f	2ff\	f	2ddd\	2fff\
4r	.	.	4r	.	.	.	.	.	.	.	.	.	.	.	.	.	.	.	.	.	.	.	.	.	.	.	.	.	.	.	.	.
4r	.	.	4r	.	.	.	.	.	4D\	-ci-	4d\	-ci-	.	4a\	-ci-	4ff\	-ci-	.	.	4A/	4a\	.	4d\	.	.	.	4dd\	.	4ff\	.	4ddd\	4fff\
!	!	!	!	!	!	!	!	!	!	!	!	!	!	!	!	!LO:LB:g=original	!	!	!	!	!	!	!LO:LB:g=original	!	!	!	!	!	!	!	!	!
=42	=42	=42	=42	=42	=42	=42	=42	=42	=42	=42	=42	=42	=42	=42	=42	=42	=42	=42	=42	=42	=42	=42	=42	=42	=42	=42	=42	=42	=42	=42	=42	=42
!	!	!LO:DY:b:rj:t=for	!LO:N:vis=4	!	!	!LO:DY:b:rj	!	!LO:DY:rj	!	!	!	!	!	!	!	!	!	!	!	!	!	!	!	!	!	!	!	!	!	!	!	!
16r	.	f	16r	.	16r	f	16r	f	4AA/	-pe	4c#X\	-pe	.	4g\	-pe	4ee\	-pe	2.ryy	2.ryy	4A/	4a\	.	4c#X\	.	4e\	.	4cc#X\	.	4ee\	.	4ccc#X\	4eee\
!	!	!	!	!	!	!	!	!	!	!	!	!	!	!	!	!	!	!	!	!	!	!	!	!	!	!	!	!	!	!	!	!
16AA|\LL	.	.	16A/LL	.	16A/LL	.	16A'/LL	.	.	.	.	.	.	.	.	.	.	.	.	.	.	.	.	.	.	.	.	.	.	.	.	.
16BB-X|\	.	.	16B-X/	.	16B-/	.	16B-X'/	.	.	.	.	.	.	.	.	.	.	.	.	.	.	.	.	.	.	.	.	.	.	.	.	.
16C#X|\JJ	.	.	16c#X/JJ	.	16c#X/JJ	.	16c#X'/JJ	.	.	.	.	.	.	.	.	.	.	.	.	.	.	.	.	.	.	.	.	.	.	.	.	.
16D|\LL	.	.	16d\LL	.	16d/LL	.	16d'/LL	.	4r	.	4r	.	.	4r	.	4r	.	.	.	4r	4r	.	4r	.	4r	.	4r	.	4r	.	4r	4r
16E|\	.	.	16e\	.	16e/	.	16e'/	.	.	.	.	.	.	.	.	.	.	.	.	.	.	.	.	.	.	.	.	.	.	.	.	.
16F|\	.	.	16f\	.	16f/	.	16f'/	.	.	.	.	.	.	.	.	.	.	.	.	.	.	.	.	.	.	.	.	.	.	.	.	.
16G#X|\JJ	.	.	16g#X\JJ	.	16g#X/JJ	.	16g#X'/JJ	.	.	.	.	.	.	.	.	.	.	.	.	.	.	.	.	.	.	.	.	.	.	.	.	.
4A|\	.	.	4a\	.	4a/	.	4a/	.	4r	.	4r	.	.	4r	.	4r	.	.	.	4r	4r	.	4r	.	4r	.	4r	.	4r	.	4r	4r
!	!	!	!	!	!	!	!	!	!	!	!LO:LB:g=original	!	!	!	!	!	!	!	!	!	!	!	!	!	!	!	!	!	!	!	!	!
=43	=43	=43	=43	=43	=43	=43	=43	=43	=43	=43	=43	=43	=43	=43	=43	=43	=43	=43	=43	=43	=43	=43	=43	=43	=43	=43	=43	=43	=43	=43	=43	=43
*	*	*	*	*	*	*	*	*	*	*ij	*	*	*	*	*ij	*	*	*	*	*	*	*	*	*	*	*	*	*	*	*	*	*
!LO:TX:a:t=1	!	!	!LO:TX:a:t=1	!	!LO:TX:a:t=1	!	!LO:TX:a:t=1.	!	!	!	!	!	!	!	!	!	!	!	!	!	!	!	!	!	!	!	!	!	!	!	!	!
2.r	.	.	2.r	.	2.r	.	2.r	.	2AA/	Suſ-	2e\	sus-	.	2b-\	Sus-	2gg\	Sus-	2.ryy	2.ryy	2A/	2a\	.	2e\	.	2g\	.	2ee\	.	2gg\	.	2eee\	2ggg\
.	.	.	.	.	.	.	.	.	4AA/	-ci-	4e\	-ci-	.	4b-\	-ci-	4gg\	-ci-	.	.	4A/	4a\	.	4e\	.	4g\	.	4ee\	.	4gg\	.	4eee\	4ggg\
!	!	!	!	!	!	!	!	!	!	!	!	!	!	!	!	!	!	!	!	!LO:LB:g=original	!	!	!	!	!LO:LB:g=original	!	!	!	!	!	!	!
=44	=44	=44	=44	=44	=44	=44	=44	=44	=44	=44	=44	=44	=44	=44	=44	=44	=44	=44	=44	=44	=44	=44	=44	=44	=44	=44	=44	=44	=44	=44	=44	=44
!	!	!	!LO:N:vis=8	!	!	!	!	!	!	!	!	!	!	!	!	!	!	!	!	!	!	!	!	!	!	!	!	!	!	!	!	!
16r	.	.	16r	.	16r	.	16r	.	4D\	-pe	4d\	-pe	.	4a\	-pe	4ff\	-pe	2.ryy	2.ryy	4A/	4a\	.	4d\	.	4f\	.	4dd\	.	4ff\	.	4ddd\	4fff\
16D|\LL	.	.	16d\LL	.	16d/LL	.	16d'/LL	.	.	.	.	.	.	.	.	.	.	.	.	.	.	.	.	.	.	.	.	.	.	.	.	.
16E|\	.	.	16e\	.	16e/	.	16e'/	.	.	.	.	.	.	.	.	.	.	.	.	.	.	.	.	.	.	.	.	.	.	.	.	.
16F|\JJ	.	.	16fn\JJ	.	16f/JJ	.	16f'/JJ	.	.	.	.	.	.	.	.	.	.	.	.	.	.	.	.	.	.	.	.	.	.	.	.	.
16G|\LL	.	.	16g\LL	.	16g/LL	.	16g'/LL	.	4r	.	4r	.	.	4r	.	4r	.	.	.	4r	4r	.	4r	.	4r	.	4r	.	4r	.	4r	4r
16A|\	.	.	16a\	.	16a/	.	16a'/	.	.	.	.	.	.	.	.	.	.	.	.	.	.	.	.	.	.	.	.	.	.	.	.	.
16B-X|\	.	.	16b-X\	.	16b-X/	.	16b-'/	.	.	.	.	.	.	.	.	.	.	.	.	.	.	.	.	.	.	.	.	.	.	.	.	.
16c#X|\JJ	.	.	16cc#X\JJ	.	16cc#X/JJ	.	16cc#X'/JJ	.	.	.	.	.	.	.	.	.	.	.	.	.	.	.	.	.	.	.	.	.	.	.	.	.
4d|\	.	.	4dd\	.	4dd\	.	4dd\	.	4r	.	4r	.	.	4r	.	4r	.	.	.	4r	4r	.	4r	.	4r	.	4r	.	4r	.	4r	4r
!LO:LB:g=original	!	!	!LO:LB:g=original	!	!	!	!	!	!	!	!	!	!	!LO:LB:g=original	!	!	!	!	!	!	!LO:LB:g=original	!	!	!	!	!	!	!	!	!	!	!
=45	=45	=45	=45	=45	=45	=45	=45	=45	=45	=45	=45	=45	=45	=45	=45	=45	=45	=45	=45	=45	=45	=45	=45	=45	=45	=45	=45	=45	=45	=45	=45	=45
*	*	*	*	*	*	*	*	*	*	*	*	*ij	*	*	*Xij	*	*ij	*	*	*	*	*	*	*	*	*	*	*	*	*	*	*
!LO:TX:a:t=1	!	!	!LO:TX:a:t=1	!	!LO:TX:a:t=1	!	!LO:TX:a:t=1.	!	!	!	!	!	!	!	!	!	!	!	!	!	!	!	!	!	!	!	!	!	!	!	!	!
2.r	.	.	2.r	.	2.r	.	2.r	.	2F\	Suſ-	2A\	sus-	.	2cc\	Sus-	2ee-X\	Sus-	2.ryy	2.ryy	2F/	2f\	.	2cn\	.	2e-X\	.	2ccn\	.	2ee-X\	.	2ccc\	2eee-X\
.	.	.	.	.	.	.	.	.	4F\	-ci-	4A\	-ci-	.	4cc\	-ci-	4ee-\	-ci-	.	.	4F/	4f\	.	4c\	.	4e-\	.	4cc\	.	4ee-\	.	4ccc\	4eee-\
!	!	!	!	!	!	!	!	!	!	!	!	!	!	!	!	!	!	!	!	!	!	!	!	!	!	!	!	!	!LO:LB:g=original	!	!	!
=46	=46	=46	=46	=46	=46	=46	=46	=46	=46	=46	=46	=46	=46	=46	=46	=46	=46	=46	=46	=46	=46	=46	=46	=46	=46	=46	=46	=46	=46	=46	=46	=46
!	!	!	!LO:N:vis=8	!	!	!	!	!	!	!	!	!	!	!	!	!	!	!	!	!	!	!	!	!	!	!	!	!	!	!	!	!
16r	.	.	16r	.	16r	.	16r	.	4B-X\	-pe	4B-X\	-pe	.	4b-X\	-pe	4dd\	-pe	2.ryy	2.ryy	4F/	4f\	.	4B-X\	.	4d\	.	4b-X\	.	4dd\	.	4bb-\	4ddd\
16BB-X|/LL	.	.	16B-X/LL	.	16B-X/LL	.	16B-X'/LL	.	.	.	.	.	.	.	.	.	.	.	.	.	.	.	.	.	.	.	.	.	.	.	.	.
16C|/	.	.	16cnX/	.	16cn/	.	16c'/	.	.	.	.	.	.	.	.	.	.	.	.	.	.	.	.	.	.	.	.	.	.	.	.	.
16D|/JJ	.	.	16d/JJ	.	16d/JJ	.	16d'/JJ	.	.	.	.	.	.	.	.	.	.	.	.	.	.	.	.	.	.	.	.	.	.	.	.	.
16E-X|\LL	.	.	16e-X\LL	.	16e-X/LL	.	16e-X'/LL	.	4r	.	4r	.	.	4r	.	4r	.	.	.	4r	4r	.	4r	.	4r	.	4r	.	4r	.	4r	4r
16F|\	.	.	16f\	.	16f/	.	16f'/	.	.	.	.	.	.	.	.	.	.	.	.	.	.	.	.	.	.	.	.	.	.	.	.	.
16G|\	.	.	16g\	.	16g/	.	16g'/	.	.	.	.	.	.	.	.	.	.	.	.	.	.	.	.	.	.	.	.	.	.	.	.	.
16A|\JJ	.	.	16a\JJ	.	16a/JJ	.	16a'/JJ	.	.	.	.	.	.	.	.	.	.	.	.	.	.	.	.	.	.	.	.	.	.	.	.	.
!	!	!	!	!	!	!	!LO:LB:g=original	!	!	!	!	!	!	!	!	!	!	!	!	!	!	!	!	!	!	!	!	!	!	!	!	!
4B-|\	.	.	4b-X\	.	4b-X\	.	4b-X\	.	4r	.	4r	.	.	4r	.	4r	.	.	.	4r	4r	.	4r	.	4r	.	4r	.	4r	.	4r	4r
*	*	*	*	*	*	*	*	*	*	*Xij	*	*Xij	*	*	*	*	*Xij	*	*	*	*	*	*	*	*	*	*	*	*	*	*	*
=47	=47	=47	=47	=47	=47	=47	=47	=47	=47	=47	=47	=47	=47	=47	=47	=47	=47	=47	=47	=47	=47	=47	=47	=47	=47	=47	=47	=47	=47	=47	=47	=47
4.Bn\	x x 3_	.	4.g\	.	4.dd\	.	4.ff\	.	4.Bn\	de-	4.g\	de-	.	4.dd\	De-	4.ff\	mi-	2.ryy	2.ryy	4.g\	4.g\	.	4.d\	.	4.f\	.	4.dd\	.	4.ff\	.	4.ddd\	4.fff\
8B\L	.	.	8g\L	.	8dd\L	.	8ff|\L	.	8B\	-pre-	8g\	-pre-	.	8dd\	-pre-	8ff\	-se-	.	.	8g\L	8g\L	.	8d\L	.	8f\L	.	8dd\L	.	8ff\L	.	8ddd\L	8fff\L
8B\	x 5 3	.	8g\	.	8dd\	.	8ff|\	.	8B\	-ca-	8g\	-ca-	.	8dd\	-ca-	8ff\	-re-	.	.	8g\	8g\	.	8d\	.	8f\	.	8dd\	.	8ff\	.	8ddd\	8fff\
8B\J	.	.	8g\J	.	8dd\J	.	8ff|\J	.	8B\	-ti-	8g\	-ti-	.	8dd\	-ti-	8ff\	-re	.	.	8g\J	8g\J	.	8d\J	.	8f\J	.	8dd\J	.	8ff\J	.	8ddd\J	8fff\J
!	!	!	!	!	!LO:LB:g=original	!	!	!	!LO:LB:g=original	!	!	!	!	!	!	!	!	!	!	!	!	!	!	!	!	!	!LO:LB:g=original	!	!	!	!	!
=48	=48	=48	=48	=48	=48	=48	=48	=48	=48	=48	=48	=48	=48	=48	=48	=48	=48	=48	=48	=48	=48	=48	=48	=48	=48	=48	=48	=48	=48	=48	=48	=48
*tremolo	*	*	*tremolo	*	*	*	*	*	*	*	*	*	*	*	*	*	*	*	*	*	*	*	*	*	*	*	*	*	*	*	*	*
8c\L	x x 3	.	8cc\L	.	16g/LL	.	16ee'\LL	.	2c\	-o-	2g\	-o-	.	2cc\	-o-	2ee\	no-	2.ryy	2.ryy	4c/	4g\	.	4c\	.	4en\	.	4cc\	.	4een\	.	4ccc\	4eee\
.	.	.	.	.	16a/	.	16ff'\	.	.	.	.	.	.	.	.	.	.	.	.	.	.	.	.	.	.	.	.	.	.	.	.	.
8c\	.	.	8cc\	.	16b-/	.	16gg'\	.	.	.	.	.	.	.	.	.	.	.	.	.	.	.	.	.	.	.	.	.	.	.	.	.
.	.	.	.	.	16a/JJ	.	16ff'\JJ	.	.	.	.	.	.	.	.	.	.	.	.	.	.	.	.	.	.	.	.	.	.	.	.	.
*	*	*	*	*	*rep	*	*rep	*	*	*	*	*	*	*	*	*	*	*	*	*	*	*	*	*	*	*	*	*	*	*	*	*
8c\	.	.	8cc\	.	16g/LL	.	16ee'\LL	.	.	.	.	.	.	.	.	.	.	.	.	4r	4r	.	4r	.	4r	.	4r	.	4r	.	4r	4r
.	.	.	.	.	16a/	.	16ff'\	.	.	.	.	.	.	.	.	.	.	.	.	.	.	.	.	.	.	.	.	.	.	.	.	.
8c\	.	.	8cc\	.	16b-/	.	16gg'\	.	.	.	.	.	.	.	.	.	.	.	.	.	.	.	.	.	.	.	.	.	.	.	.	.
.	.	.	.	.	16a/JJ	.	16ff'\JJ	.	.	.	.	.	.	.	.	.	.	.	.	.	.	.	.	.	.	.	.	.	.	.	.	.
*	*	*	*	*	*Xrep	*	*Xrep	*	*	*	*	*	*	*	*	*	*	*	*	*	*	*	*	*	*	*	*	*	*	*	*	*
*	*	*	*	*	*rep	*	*rep	*	*	*	*	*	*	*	*	*	*	*	*	*	*	*	*	*	*	*	*	*	*	*	*	*
8c\	.	.	8cc\	.	16g/LL	.	16ee'\LL	.	4c\	-nem	4g\	-nem	.	4cc\	-nem	4ee\	-bis	.	.	4r	4r	.	4r	.	4r	.	4r	.	4r	.	4r	4r
.	.	.	.	.	16a/	.	16ff'\	.	.	.	.	.	.	.	.	.	.	.	.	.	.	.	.	.	.	.	.	.	.	.	.	.
8c\J	.	.	8cc\J	.	16b-/	.	16gg'\	.	.	.	.	.	.	.	.	.	.	.	.	.	.	.	.	.	.	.	.	.	.	.	.	.
.	.	.	.	.	16a/JJ	.	16ff'\JJ	.	.	.	.	.	.	.	.	.	.	.	.	.	.	.	.	.	.	.	.	.	.	.	.	.
*	*	*	*	*	*Xrep	*	*Xrep	*	*	*	*	*	*	*	*	*	*	*	*	*	*	*	*	*	*	*	*	*	*	*	*	*
!	!	!	!	!	!	!	!	!	!	!	!	!	!	!	!	!	!	!	!	!	!	!	!	!	!	!	!	!	!	!	!LO:LB:g=original	!
=49	=49	=49	=49	=49	=49	=49	=49	=49	=49	=49	=49	=49	=49	=49	=49	=49	=49	=49	=49	=49	=49	=49	=49	=49	=49	=49	=49	=49	=49	=49	=49	=49
8B-X\L	x 4 2	.	8b-X\L	.	16g/LL	.	16een\LL	.	4B-X\	nos-	4g\	noſ-	.	4cc\	nos-	4ee\	nos-	2.ryy	2.ryy	2.c/	2.g\	.	2G\	.	2e\	.	2g/	.	2ee\	.	2gg\	2eee\
.	.	.	.	.	16a/	.	16ff\	.	.	.	.	.	.	.	.	.	.	.	.	.	.	.	.	.	.	.	.	.	.	.	.	.
8B-X\	.	.	8b-X\	.	16b-/	.	16gg\	.	.	.	.	.	.	.	.	.	.	.	.	.	.	.	.	.	.	.	.	.	.	.	.	.
.	.	.	.	.	16a/JJ	.	16ff\JJ	.	.	.	.	.	.	.	.	.	.	.	.	.	.	.	.	.	.	.	.	.	.	.	.	.
*	*	*	*	*	*rep	*	*rep	*	*	*	*	*	*	*	*	*	*	*	*	*	*	*	*	*	*	*	*	*	*	*	*	*
8B-X\	.	.	8b-X\	.	16g/LL	.	16ee\LL	.	4B-\	-tra(m)	4g\	-tram	.	4cc\	-tram	4ee\	-tram	.	.	.	.	.	.	.	.	.	.	.	.	.	.	.
.	.	.	.	.	16a/	.	16ff\	.	.	.	.	.	.	.	.	.	.	.	.	.	.	.	.	.	.	.	.	.	.	.	.	.
8B-X\	.	.	8b-X\	.	16b-/	.	16gg\	.	.	.	.	.	.	.	.	.	.	.	.	.	.	.	.	.	.	.	.	.	.	.	.	.
.	.	.	.	.	16a/JJ	.	16ff\JJ	.	.	.	.	.	.	.	.	.	.	.	.	.	.	.	.	.	.	.	.	.	.	.	.	.
*	*	*	*	*	*Xrep	*	*Xrep	*	*	*	*	*	*	*	*	*	*	*	*	*	*	*	*	*	*	*	*	*	*	*	*	*
8B-X\	.	.	8b-X\	.	16g/LL	.	16ee\LL	.	4B-\	qvi	4g\	qui	.	4cc\	qui	4ee\	qui	.	.	.	.	.	4G\	.	4e\	.	4g/	.	4ee\	.	4gg\	4eee\
.	.	.	.	.	16a/	.	16ff\	.	.	.	.	.	.	.	.	.	.	.	.	.	.	.	.	.	.	.	.	.	.	.	.	.
8B-X\J	.	.	8b-X\J	.	16b-/	.	16gg\	.	.	.	.	.	.	.	.	.	.	.	.	.	.	.	.	.	.	.	.	.	.	.	.	.
.	.	.	.	.	16g/JJ	.	16ee\JJ	.	.	.	.	.	.	.	.	.	.	.	.	.	.	.	.	.	.	.	.	.	.	.	.	.
!	!	!	!	!	!	!	!	!	!	!	!LO:LB:g=original	!	!	!	!	!	!	!	!	!	!	!	!	!	!	!	!	!	!	!	!	!
=50	=50	=50	=50	=50	=50	=50	=50	=50	=50	=50	=50	=50	=50	=50	=50	=50	=50	=50	=50	=50	=50	=50	=50	=50	=50	=50	=50	=50	=50	=50	=50	=50
8A\L	x 6 3	.	8a\L	.	16a\LL	.	16ff'\LL	.	4A\	se-	4f\	se-	.	4cc\	se-	4ff\	se-	2.ryy	2.ryy	2.A/	2.f\	.	2A\	.	2f\	.	2a/	.	2ff\	.	2aa\	2fff\
.	.	.	.	.	16b-\	.	16gg'\	.	.	.	.	.	.	.	.	.	.	.	.	.	.	.	.	.	.	.	.	.	.	.	.	.
8A\	.	.	8a\	.	16cc\	.	16aa'\	.	.	.	.	.	.	.	.	.	.	.	.	.	.	.	.	.	.	.	.	.	.	.	.	.
.	.	.	.	.	16b-\JJ	.	16gg'\JJ	.	.	.	.	.	.	.	.	.	.	.	.	.	.	.	.	.	.	.	.	.	.	.	.	.
*	*	*	*	*	*rep	*	*rep	*	*	*	*	*	*	*	*	*	*	*	*	*	*	*	*	*	*	*	*	*	*	*	*	*
8A\	.	.	8a\	.	16a\LL	.	16ff'\LL	.	4A\	-des	4f\	-des	.	4cc\	-des	4ff\	-des	.	.	.	.	.	.	.	.	.	.	.	.	.	.	.
.	.	.	.	.	16b-\	.	16gg'\	.	.	.	.	.	.	.	.	.	.	.	.	.	.	.	.	.	.	.	.	.	.	.	.	.
8A\	.	.	8a\	.	16cc\	.	16aa'\	.	.	.	.	.	.	.	.	.	.	.	.	.	.	.	.	.	.	.	.	.	.	.	.	.
.	.	.	.	.	16b-\JJ	.	16gg'\JJ	.	.	.	.	.	.	.	.	.	.	.	.	.	.	.	.	.	.	.	.	.	.	.	.	.
*	*	*	*	*	*Xrep	*	*Xrep	*	*	*	*	*	*	*	*	*	*	*	*	*	*	*	*	*	*	*	*	*	*	*	*	*
8A\	.	.	8a\	.	16a'/LL	.	16ff\LL	.	4A\	ad	4f\	ad	.	4cc\	ad	4ff\	ad	.	.	.	.	.	4A\	.	4f\	.	4a/	.	4ff\	.	4aa\	4fff\
.	.	.	.	.	16b-'/	.	16gg\	.	.	.	.	.	.	.	.	.	.	.	.	.	.	.	.	.	.	.	.	.	.	.	.	.
8A\J	.	.	8a\J	.	16cc'/	.	16aa\	.	.	.	.	.	.	.	.	.	.	.	.	.	.	.	.	.	.	.	.	.	.	.	.	.
.	.	.	.	.	16a'/JJ	.	16ff\JJ	.	.	.	.	.	.	.	.	.	.	.	.	.	.	.	.	.	.	.	.	.	.	.	.	.
!	!	!	!	!	!	!	!	!	!	!	!	!	!	!	!	!LO:LB:g=original	!	!	!	!	!	!	!	!	!	!	!	!	!	!	!	!
=51	=51	=51	=51	=51	=51	=51	=51	=51	=51	=51	=51	=51	=51	=51	=51	=51	=51	=51	=51	=51	=51	=51	=51	=51	=51	=51	=51	=51	=51	=51	=51	=51
8E\L	x 5 3	.	8e\L	.	16ee\LL	.	16gg\LL	.	4E\	dex-	4e\	dex-	.	4b-\	dex-	4gg\	dex-	2.ryy	2.ryy	2.c/	2.g\	.	2B-\	.	2g\	.	2ee\	.	2gg\	.	2bb-X\	2ggg\
.	.	.	.	.	16ff\	.	16aa\	.	.	.	.	.	.	.	.	.	.	.	.	.	.	.	.	.	.	.	.	.	.	.	.	.
8E\	.	.	8e\	.	16gg\	.	16bb-X\	.	.	.	.	.	.	.	.	.	.	.	.	.	.	.	.	.	.	.	.	.	.	.	.	.
.	.	.	.	.	16ff\JJ	.	16aa\JJ	.	.	.	.	.	.	.	.	.	.	.	.	.	.	.	.	.	.	.	.	.	.	.	.	.
*	*	*	*	*	*	*	*rep	*	*	*	*	*	*	*	*	*	*	*	*	*	*	*	*	*	*	*	*	*	*	*	*	*
8E\	.	.	8e\	.	16ee\LL	.	16gg\LL	.	4E\	-te-	4e\	-te-	.	4b-\	-te-	4gg\	-te-	.	.	.	.	.	.	.	.	.	.	.	.	.	.	.
.	.	.	.	.	16ff\	.	16aa\	.	.	.	.	.	.	.	.	.	.	.	.	.	.	.	.	.	.	.	.	.	.	.	.	.
8E\	.	.	8e\	.	16gg\	.	16bb-\	.	.	.	.	.	.	.	.	.	.	.	.	.	.	.	.	.	.	.	.	.	.	.	.	.
.	.	.	.	.	16ff\JJ	.	16aa\JJ	.	.	.	.	.	.	.	.	.	.	.	.	.	.	.	.	.	.	.	.	.	.	.	.	.
*	*	*	*	*	*	*	*Xrep	*	*	*	*	*	*	*	*	*	*	*	*	*	*	*	*	*	*	*	*	*	*	*	*	*
8E\	.	.	8e\	.	16ee\LL	.	16gg\LL	.	4E\	-ram	4e\	-ram	.	4b-\	-ram	4gg\	-ram	.	.	.	.	.	4B-\	.	4g\	.	4ee\	.	4gg\	.	4bb-\	4ggg\
.	.	.	.	.	16ff\	.	16aa\	.	.	.	.	.	.	.	.	.	.	.	.	.	.	.	.	.	.	.	.	.	.	.	.	.
8E\J	.	.	8e\J	.	16gg\	.	16bb-\	.	.	.	.	.	.	.	.	.	.	.	.	.	.	.	.	.	.	.	.	.	.	.	.	.
.	.	.	.	.	16ee\JJ	.	16gg\JJ	.	.	.	.	.	.	.	.	.	.	.	.	.	.	.	.	.	.	.	.	.	.	.	.	.
!LO:LB:g=original	!	!	!	!	!	!	!	!	!	!	!	!	!	!	!	!	!	!	!	!	!	!	!LO:PB:g=original	!	!	!	!	!	!	!	!	!LO:PB:g=original
=52	=52	=52	=52	=52	=52	=52	=52	=52	=52	=52	=52	=52	=52	=52	=52	=52	=52	=52	=52	=52	=52	=52	=52	=52	=52	=52	=52	=52	=52	=52	=52	=52
*	*	*	*	*	*2\right	*	*	*	*	*	*	*	*	*	*	*	*	*	*	*	*	*	*	*	*	*	*	*	*	*	*	*
*	*	*	*	*	*tremolo	*	*tremolo	*	*	*	*	*	*	*	*	*	*	*	*	*	*	*	*	*	*	*	*	*	*	*	*	*
!	!	!	!	!	!	!	!	!	!	!	!	!	!	!	!	!	!	!	!	!	!LO:TX:a:t=1	!	!LO:TX:a:t=1.	!	!LO:TX:a:t=1.	!	!	!	!	!	!	!LO:TX:a:t=1
8F\L	x x 10	.	8f\L	.	8cc\L	.	8aa\L	.	4F\	pa-	2f\	ad	.	2cc\	ad	2aa\	ad	2.ryy	2.ryy	2.r	2.r	.	2.r	.	2.r	.	2ff\	.	2aa\	.	2.r	2.r
8F\	.	.	8f\	.	8cc\	.	8aa\	.	.	.	.	.	.	.	.	.	.	.	.	.	.	.	.	.	.	.	.	.	.	.	.	.
8F\	.	.	8f\	.	8cc\	.	8aa\	.	4.F\	-tris	.	.	.	.	.	.	.	.	.	.	.	.	.	.	.	.	.	.	.	.	.	.
8F\J	.	.	8f\J	.	8cc\J	.	8aa\J	.	.	.	.	.	.	.	.	.	.	.	.	.	.	.	.	.	.	.	.	.	.	.	.	.
*Xtremolo	*	*	*Xtremolo	*	*Xtremolo	*	*Xtremolo	*	*	*	*	*	*	*	*	*	*	*	*	*	*	*	*	*	*	*	*	*	*	*	*	*
8c#X\L	x x 5	.	8cc#X\L	.	4een\	.	8gg\L	.	.	.	4e\	dex-	.	4een\	dex-	4gg\	dex-	.	.	.	.	.	.	.	.	.	4ff\	.	4gg\	.	.	.
8c#\J	.	.	8cc#\J	.	.	.	8gg\J	.	8c#X\	ad	.	.	.	.	.	.	.	.	.	.	.	.	.	.	.	.	.	.	.	.	.	.
!	!	!	!	!	!LO:LB:g=original	!	!	!	!	!	!	!	!	!LO:LB:g=original	!	!	!	!	!	!	!	!	!	!	!	!	!	!	!	!	!	!
=53	=53	=53	=53	=53	=53	=53	=53	=53	=53	=53	=53	=53	=53	=53	=53	=53	=53	=53	=53	=53	=53	=53	=53	=53	=53	=53	=53	=53	=53	=53	=53	=53
*tremolo	*	*	*tremolo	*	*tremolo	*	*tremolo	*	*	*	*	*	*	*	*	*	*	*	*	*	*	*	*	*	*	*	*	*	*	*	*	*
8d\L	x x 5	.	8dd\L	.	8a/L	.	8ff\L	.	4.d\	dex-	2f\	-te-	.	2a\	-te-	2ff\	-te-	2.ryy	2.ryy	2F/	2f\	.	2A\	.	2f\	.	2dd\	.	2ff\	.	2aa\	2fff\
8d\	.	.	8dd\	.	8a/	.	8ff\	.	.	.	.	.	.	.	.	.	.	.	.	.	.	.	.	.	.	.	.	.	.	.	.	.
8d\	.	.	8dd\	.	8a/	.	8ff\	.	.	.	.	.	.	.	.	.	.	.	.	.	.	.	.	.	.	.	.	.	.	.	.	.
8d\J	.	.	8dd\J	.	8a/J	.	8ff\J	.	8d\	-te-	.	.	.	.	.	.	.	.	.	.	.	.	.	.	.	.	.	.	.	.	.	.
*Xtremolo	*	*	*Xtremolo	*	*Xtremolo	*	*Xtremolo	*	*	*	*	*	*	*	*	*	*	*	*	*	*	*	*	*	*	*	*	*	*	*	*	*
8A\L	x x -5	.	8a\L	.	8cc\L	.	8ee-X\L	.	4A\	-ram	4f\	-ram	.	4cc\	-ram	4ee-X\	-ram	.	.	4F/	4f\	.	4c\	.	4e-X\	.	4cc\	.	4ee-X\	.	4ccc\	4eee-X\
8A\J	.	.	8a\J	.	8cc\J	.	8ee-\J	.	.	.	.	.	.	.	.	.	.	.	.	.	.	.	.	.	.	.	.	.	.	.	.	.
!	!	!	!LO:LB:g=original	!	!	!	!LO:LB:g=original	!	!LO:LB:g=original	!	!	!	!	!	!	!	!	!	!	!	!	!	!	!	!	!	!	!	!	!	!	!
=54	=54	=54	=54	=54	=54	=54	=54	=54	=54	=54	=54	=54	=54	=54	=54	=54	=54	=54	=54	=54	=54	=54	=54	=54	=54	=54	=54	=54	=54	=54	=54	=54
*tremolo	*	*	*tremolo	*	*	*	*	*	*	*	*	*	*	*	*	*	*	*	*	*	*	*	*	*	*	*	*	*	*	*	*	*
!	!	!	!	!	!	!	!	!	!	!	!	!	!	!	!	!	!	!	!	!	!LO:TX:a:t=1	!	!	!	!	!	!	!	!	!	!	!
8B-X\L	x x 3	.	8b-X\L	.	16b-\LL	.	16dd\LL	.	2B-\	pa-	2f\	.	.	2f\	pa-	2dd\	Pa-	2.ryy	2.ryy	2.r	2.r	.	4.B-\	.	4.d\	.	4.b-\	.	4.dd\	.	4.bb-\	4.ddd\
.	.	.	.	.	16cc\	.	16een\	.	.	.	.	.	.	.	.	.	.	.	.	.	.	.	.	.	.	.	.	.	.	.	.	.
8B-X\	.	.	8b-\	.	16dd\	.	16ff\	.	.	.	.	.	.	.	.	.	.	.	.	.	.	.	.	.	.	.	.	.	.	.	.	.
.	.	.	.	.	16cc\JJ	.	16ee\JJ	.	.	.	.	.	.	.	.	.	.	.	.	.	.	.	.	.	.	.	.	.	.	.	.	.
*	*	*	*	*	*rep	*	*rep	*	*	*	*	*	*	*	*	*	*	*	*	*	*	*	*	*	*	*	*	*	*	*	*	*
8B-X\	.	.	8b-\	.	16b-\LL	.	16dd\LL	.	.	.	.	.	.	.	.	.	.	.	.	.	.	.	.	.	.	.	.	.	.	.	.	.
.	.	.	.	.	16cc\	.	16ee\	.	.	.	.	.	.	.	.	.	.	.	.	.	.	.	.	.	.	.	.	.	.	.	.	.
8B-X\	.	.	8b-\	.	16dd\	.	16ff\	.	.	.	.	.	.	.	.	.	.	.	.	.	.	.	8B-\L	.	8d\L	.	8b-\L	.	8dd\L	.	8bb-\L	8ddd\L
.	.	.	.	.	16cc\JJ	.	16ee\JJ	.	.	.	.	.	.	.	.	.	.	.	.	.	.	.	.	.	.	.	.	.	.	.	.	.
*	*	*	*	*	*Xrep	*	*Xrep	*	*	*	*	*	*	*	*	*	*	*	*	*	*	*	*	*	*	*	*	*	*	*	*	*
8B-X\	.	.	8b-\	.	16b-\LL	.	16dd\LL	.	4B-\	-tris	4f\	pa-	.	4f\	-tris	4dd\	-tris	.	.	.	.	.	8B-\	.	8d\	.	8b-\	.	8dd\	.	8bb-\	8ddd\
.	.	.	.	.	16cc\	.	16ee\	.	.	.	.	.	.	.	.	.	.	.	.	.	.	.	.	.	.	.	.	.	.	.	.	.
8B-X\J	.	.	8b-\J	.	16dd\	.	16ff\	.	.	.	.	.	.	.	.	.	.	.	.	.	.	.	8B-\J	.	8d\J	.	8b-\J	.	8dd\J	.	8bb-\J	8ddd\J
.	.	.	.	.	16b-\JJ	.	16dd\JJ	.	.	.	.	.	.	.	.	.	.	.	.	.	.	.	.	.	.	.	.	.	.	.	.	.
!	!	!	!	!	!	!	!	!	!	!	!	!	!	!	!	!	!	!	!	!LO:LB:g=original	!	!	!	!	!LO:LB:g=original	!	!	!	!LO:LB:g=original	!	!	!
=55	=55	=55	=55	=55	=55	=55	=55	=55	=55	=55	=55	=55	=55	=55	=55	=55	=55	=55	=55	=55	=55	=55	=55	=55	=55	=55	=55	=55	=55	=55	=55	=55
8B-\L	x x 4	.	8b-\L	.	16g/LL	.	16ee\LL	.	2B-\	Mi-	2g\	-tris	.	2g\	mi-	2een\	Mi-	2.ryy	2.ryy	4.c/	4.g\	.	4.G\	.	4.en\	.	4.g/	.	4.een\	.	4.gg\	4.eeen\
.	.	.	.	.	16a/	.	16ff\	.	.	.	.	.	.	.	.	.	.	.	.	.	.	.	.	.	.	.	.	.	.	.	.	.
8B-\	.	.	8b-\	.	16b-/	.	16gg\	.	.	.	.	.	.	.	.	.	.	.	.	.	.	.	.	.	.	.	.	.	.	.	.	.
.	.	.	.	.	16a/JJ	.	16ff\JJ	.	.	.	.	.	.	.	.	.	.	.	.	.	.	.	.	.	.	.	.	.	.	.	.	.
*	*	*	*	*	*rep	*	*rep	*	*	*	*	*	*	*	*	*	*	*	*	*	*	*	*	*	*	*	*	*	*	*	*	*
8B-\	.	.	8b-\	.	16g/LL	.	16ee\LL	.	.	.	.	.	.	.	.	.	.	.	.	.	.	.	.	.	.	.	.	.	.	.	.	.
.	.	.	.	.	16a/	.	16ff\	.	.	.	.	.	.	.	.	.	.	.	.	.	.	.	.	.	.	.	.	.	.	.	.	.
*	*	*	*	*	*	*	*	*	*	*	*	*	*	*	*	*	*	*	*	*	*	*	*	*	*	*	*tremolo	*	*	*	*	*
8B-\	.	.	8b-\	.	16b-/	.	16gg\	.	.	.	.	.	.	.	.	.	.	.	.	8c/L	8g\L	.	8G\L	.	8e\L	.	8g/L	.	8ee\L	.	8gg\L	8eee\L
.	.	.	.	.	16a/JJ	.	16ff\JJ	.	.	.	.	.	.	.	.	.	.	.	.	.	.	.	.	.	.	.	.	.	.	.	.	.
*	*	*	*	*	*Xrep	*	*Xrep	*	*	*	*	*	*	*	*	*	*	*	*	*	*	*	*	*	*	*	*	*	*	*	*	*
8B-\	.	.	8b-\	.	16g/LL	.	16ee\LL	.	4B-\	-se-	4g\	mi-	.	4g\	-se-	4ee\	-se-	.	.	8c/	8g\	.	8G\	.	8e\	.	8g/	.	8ee\	.	8gg\	8eee\
.	.	.	.	.	16a/	.	16ff\	.	.	.	.	.	.	.	.	.	.	.	.	.	.	.	.	.	.	.	.	.	.	.	.	.
8B-\J	.	.	8b-\J	.	16b-/	.	16gg\	.	.	.	.	.	.	.	.	.	.	.	.	8c/J	8g\J	.	8G\J	.	8e\J	.	8g/J	.	8ee\J	.	8gg\J	8eee\J
.	.	.	.	.	16g/JJ	.	16ee\JJ	.	.	.	.	.	.	.	.	.	.	.	.	.	.	.	.	.	.	.	.	.	.	.	.	.
*Xtremolo	*	*	*Xtremolo	*	*	*	*	*	*	*	*	*	*	*	*	*	*	*	*	*	*	*	*	*	*	*	*Xtremolo	*	*	*	*	*
=56	=56	=56	=56	=56	=56	=56	=56	=56	=56	=56	=56	=56	=56	=56	=56	=56	=56	=56	=56	=56	=56	=56	=56	=56	=56	=56	=56	=56	=56	=56	=56	=56
8A\L	x x 6_	.	8a\L	.	16a/LL	.	16ff\LL	.	(4A\	-re-	4f\	-se-	.	(4f\	-re-	(4a\	-re-	2.ryy	2.ryy	4A/	4f\	.	4A\	.	4f\	.	4a/	.	4ff\	.	4aa\	4fff\
.	.	.	.	.	16b-/	.	16gg\	.	.	.	.	.	.	.	.	.	.	.	.	.	.	.	.	.	.	.	.	.	.	.	.	.
8A\	.	.	8a\	.	16cc/	.	16aa\	.	.	.	.	.	.	.	.	.	.	.	.	.	.	.	.	.	.	.	.	.	.	.	.	.
.	.	.	.	.	16a/JJ	.	16ff\JJ	.	.	.	.	.	.	.	.	.	.	.	.	.	.	.	.	.	.	.	.	.	.	.	.	.
8E\	x x 10_	.	8e\	.	16b-/LL	.	16gg\LL	.	4E\)	.	4e\	-re-	.	4g\)	.	4b-\	.	.	.	4c/	4g\	.	4G\	.	4B-\	.	4b-/	.	4gg\	.	4gg\	4bb-\
.	.	.	.	.	16cc/	.	16aa\	.	.	.	.	.	.	.	.	.	.	.	.	.	.	.	.	.	.	.	.	.	.	.	.	.
8E\	.	.	8e\	.	16dd/	.	16bb-\	.	.	.	.	.	.	.	.	.	.	.	.	.	.	.	.	.	.	.	.	.	.	.	.	.
.	.	.	.	.	16b-/JJ	.	16gg\JJ	.	.	.	.	.	.	.	.	.	.	.	.	.	.	.	.	.	.	.	.	.	.	.	.	.
8F\	x x 10_	.	8f\	.	4cc 4f/	.	16aa\LL	.	4F\	-re	4f\	-re	.	4a\	-re	4cc\)	-re	.	.	4f/	4a\	.	4F\	.	4A\	.	4a/	.	4ff\	.	4ff\	4aa\
.	.	.	.	.	.	.	16ccc\	.	.	.	.	.	.	.	.	.	.	.	.	.	.	.	.	.	.	.	.	.	.	.	.	.
8F\J	.	.	8f\J	.	.	.	16aa\	.	.	.	.	.	.	.	.	.	.	.	.	.	.	.	.	.	.	.	.	.	.	.	.	.
.	.	.	.	.	.	.	16ff\JJ	.	.	.	.	.	.	.	.	.	.	.	.	.	.	.	.	.	.	.	.	.	.	.	.	.
!	!	!	!	!	!	!	!	!	!	!	!	!	!	!	!	!	!	!	!	!	!LO:LB:g=original	!	!	!	!	!	!	!	!	!	!	!
=57	=57	=57	=57	=57	=57	=57	=57	=57	=57	=57	=57	=57	=57	=57	=57	=57	=57	=57	=57	=57	=57	=57	=57	=57	=57	=57	=57	=57	=57	=57	=57	=57
*tremolo	*	*	*tremolo	*	*	*	*	*	*	*ij	*	*	*	*	*	*	*	*	*	*	*	*	*	*	*	*	*	*	*	*	*	*
!	!	!	!	!	!	!	!	!	!	!	!	!	!	!	!	!	!	!	!	!	!LO:TX:a:t=1	!	!	!	!	!	!	!	!	!	!	!
8B-\L	8 5 3	.	8b-\L	.	16f/LL	.	(16dd\LL	.	2B-\	Mi-	2f\	mi-	.	2f\	mi-	2dd\	mi-	2.ryy	2.ryy	2.r	2.r	.	2B-\	.	2d\	.	2b-\	.	2dd\	.	2bb-\	2ddd\
.	.	.	.	.	16b-/	.	16gg\)	.	.	.	.	.	.	.	.	.	.	.	.	.	.	.	.	.	.	.	.	.	.	.	.	.
8B-\	.	.	8b-\	.	16b-/	.	16gg'\	.	.	.	.	.	.	.	.	.	.	.	.	.	.	.	.	.	.	.	.	.	.	.	.	.
.	.	.	.	.	16b-/JJ	.	16gg'\JJ	.	.	.	.	.	.	.	.	.	.	.	.	.	.	.	.	.	.	.	.	.	.	.	.	.
8B-\	.	.	8b-\	.	16b-\LL	.	(16gg\LL	.	.	.	.	.	.	.	.	.	.	.	.	.	.	.	.	.	.	.	.	.	.	.	.	.
.	.	.	.	.	16dd\	.	16bb-\)	.	.	.	.	.	.	.	.	.	.	.	.	.	.	.	.	.	.	.	.	.	.	.	.	.
8B-\	.	.	8b-\	.	16dd\	.	16bb-'\	.	.	.	.	.	.	.	.	.	.	.	.	.	.	.	.	.	.	.	.	.	.	.	.	.
.	.	.	.	.	16dd\JJ	.	16bb-'\JJ	.	.	.	.	.	.	.	.	.	.	.	.	.	.	.	.	.	.	.	.	.	.	.	.	.
8B-\	.	.	8b-\	.	16dd\LL	.	(16bb-\LL	.	4B-\	-se-	4f\	-se-	.	4f\	-se-	4dd\	-se-	.	.	.	.	.	4B-\	.	4d\	.	4b-\	.	4dd\	.	4bb-\	4ddd\
.	.	.	.	.	16bb-\	.	16ddd\)	.	.	.	.	.	.	.	.	.	.	.	.	.	.	.	.	.	.	.	.	.	.	.	.	.
8B-\J	.	.	8b-\J	.	16bb-\	.	16ddd'\	.	.	.	.	.	.	.	.	.	.	.	.	.	.	.	.	.	.	.	.	.	.	.	.	.
.	.	.	.	.	16bb-\JJ	.	16ddd'\JJ	.	.	.	.	.	.	.	.	.	.	.	.	.	.	.	.	.	.	.	.	.	.	.	.	.
*Xtremolo	*	*	*Xtremolo	*	*	*	*	*	*	*	*	*	*	*	*	*	*	*	*	*	*	*	*	*	*	*	*	*	*	*	*	*
!	!	!	!	!	!LO:LB:g=original	!	!	!	!	!	!	!	!	!	!	!	!	!	!	!	!	!	!	!	!	!	!	!	!	!	!	!
=58	=58	=58	=58	=58	=58	=58	=58	=58	=58	=58	=58	=58	=58	=58	=58	=58	=58	=58	=58	=58	=58	=58	=58	=58	=58	=58	=58	=58	=58	=58	=58	=58
4c\	x x 3	.	4cc\	.	8.aa\L	.	8.ccc\L	.	4c\	-re-	4g\	-re-	.	4g\	-re-	4ee\	-re-	2.ryy	2.ryy	4c/	4g\	.	4G\	.	4e\	.	4g\	.	4ee\	.	4gg\	4eee\
.	.	.	.	.	16gg\Jk	.	16bb-\Jk	.	.	.	.	.	.	.	.	.	.	.	.	.	.	.	.	.	.	.	.	.	.	.	.	.
4d\	x x 3	.	4dd\	.	16ff\LL	.	16aa\LL	.	4d\	-re	4f\	-re	.	4a\	-re	4ff\	-re	.	.	4f\	4a\	.	4A\	.	4f\	.	4a\	.	4ff\	.	4aa\	4fff\
.	.	.	.	.	16aa\	.	16ccc\	.	.	.	.	.	.	.	.	.	.	.	.	.	.	.	.	.	.	.	.	.	.	.	.	.
.	.	.	.	.	16bb-\	.	16ddd\	.	.	.	.	.	.	.	.	.	.	.	.	.	.	.	.	.	.	.	.	.	.	.	.	.
.	.	.	.	.	16aa\JJ	.	16ccc\JJ	.	.	.	.	.	.	.	.	.	.	.	.	.	.	.	.	.	.	.	.	.	.	.	.	.
!	!	!	!	!	!	!	!LO:LB:g=original	!	!	!	!	!	!	!	!	!	!	!	!	!	!	!	!	!	!	!	!	!	!	!	!	!
4r	.	.	4r	.	16dd\LL	.	16bb-\LL	.	4r	.	4r	.	.	4r	.	4r	.	.	.	4r	4r	.	4r	.	4r	.	4r	.	4r	.	4r	4r
.	.	.	.	.	16cc\	.	16aa\	.	.	.	.	.	.	.	.	.	.	.	.	.	.	.	.	.	.	.	.	.	.	.	.	.
.	.	.	.	.	16b-\	.	16gg\	.	.	.	.	.	.	.	.	.	.	.	.	.	.	.	.	.	.	.	.	.	.	.	.	.
.	.	.	.	.	16a\JJ	.	16ff\JJ	.	.	.	.	.	.	.	.	.	.	.	.	.	.	.	.	.	.	.	.	.	.	.	.	.
*	*	*	*	*	*	*	*	*	*	*Xij	*	*	*	*	*	*	*	*	*	*	*	*	*	*	*	*	*	*	*	*	*	*
!LO:LB:g=original	!	!	!	!	!	!	!	!	!	!	!LO:LB:g=original	!	!	!	!	!	!	!	!	!	!	!	!	!	!	!	!LO:LB:g=original	!	!	!	!	!
=59	=59	=59	=59	=59	=59	=59	=59	=59	=59	=59	=59	=59	=59	=59	=59	=59	=59	=59	=59	=59	=59	=59	=59	=59	=59	=59	=59	=59	=59	=59	=59	=59
8B-\	x x 6	.	8b-\	.	16r	.	16r	.	(4B-\	no-	4d\	no-	.	(4b-\	no-	(4gg\	no-	2.ryy	2.ryy	4r	4r	.	4B-\	.	4g\	.	4b-/	.	4gg\	.	4bb-\	4ggg\
.	.	.	.	.	16b-/LL	.	16gg\LL	.	.	.	.	.	.	.	.	.	.	.	.	.	.	.	.	.	.	.	.	.	.	.	.	.
8r	.	.	8r	.	16b-/	.	16gg\	.	.	.	.	.	.	.	.	.	.	.	.	.	.	.	.	.	.	.	.	.	.	.	.	.
.	.	.	.	.	16b-/JJ	.	16gg\JJ	.	.	.	.	.	.	.	.	.	.	.	.	.	.	.	.	.	.	.	.	.	.	.	.	.
8c\	x x 4	.	8cc\	.	16r	.	16r	.	4c\)	.	2c\	.	.	4a\	.	4ff\	.	.	.	4f\	4a\	.	4A\	.	4f\	.	4a/	.	4ff\	.	4aa\	4fff\
.	.	.	.	.	16a/LL	.	16ff\LL	.	.	.	.	.	.	.	.	.	.	.	.	.	.	.	.	.	.	.	.	.	.	.	.	.
8r	.	.	8r	.	16a/	.	16ff\	.	.	.	.	.	.	.	.	.	.	.	.	.	.	.	.	.	.	.	.	.	.	.	.	.
.	.	.	.	.	16a/JJ	.	16ff\JJ	.	.	.	.	.	.	.	.	.	.	.	.	.	.	.	.	.	.	.	.	.	.	.	.	.
8C/	x x 10	.	8c\	.	16r	.	16r	.	4C/	.	.	.	.	4g\)	.	4ee\)	.	.	.	4c/	4g\	.	4G\	.	4e\	.	4g/	.	4ee\	.	4gg\	4eee\
.	.	.	.	.	16g/LL	.	16ee\LL	.	.	.	.	.	.	.	.	.	.	.	.	.	.	.	.	.	.	.	.	.	.	.	.	.
8r	.	.	8r	.	16g/	.	16ee\	.	.	.	.	.	.	.	.	.	.	.	.	.	.	.	.	.	.	.	.	.	.	.	.	.
.	.	.	.	.	16g/JJ	.	16ee\JJ	.	.	.	.	.	.	.	.	.	.	.	.	.	.	.	.	.	.	.	.	.	.	.	.	.
!	!	!	!	!	!	!	!	!	!	!	!	!	!	!	!	!LO:LB:g=original	!	!	!	!	!	!	!	!	!	!	!	!	!	!	!LO:LB:g=original	!
=60	=60	=60	=60	=60	=60	=60	=60	=60	=60	=60	=60	=60	=60	=60	=60	=60	=60	=60	=60	=60	=60	=60	=60	=60	=60	=60	=60	=60	=60	=60	=60	=60
4F\	x x 3_	.	4f\	.	16f/LL	.	4ff\	.	4F\	-bis	4c\	-bis	.	4f\	-bis	4ff\	-bis	2.ryy	2.ryy	4A/	4f\	.	4A\	.	4f\	.	4a/	.	4ff\	.	4ff\	4fff\
.	.	.	.	.	16c/	.	.	.	.	.	.	.	.	.	.	.	.	.	.	.	.	.	.	.	.	.	.	.	.	.	.	.
.	.	.	.	.	16A/	.	.	.	.	.	.	.	.	.	.	.	.	.	.	.	.	.	.	.	.	.	.	.	.	.	.	.
.	.	.	.	.	16c/JJ	.	.	.	.	.	.	.	.	.	.	.	.	.	.	.	.	.	.	.	.	.	.	.	.	.	.	.
4F\	.	.	4f\	.	16f/LL	.	8r	.	4r	.	4r	.	.	4r	.	4r	.	.	.	4r	4r	.	4r	.	4r	.	4r	.	4r	.	4r	4r
.	.	.	.	.	16c/	.	.	.	.	.	.	.	.	.	.	.	.	.	.	.	.	.	.	.	.	.	.	.	.	.	.	.
.	.	.	.	.	16A/	.	8cc\	.	.	.	.	.	.	.	.	.	.	.	.	.	.	.	.	.	.	.	.	.	.	.	.	.
.	.	.	.	.	16c/JJ	.	.	.	.	.	.	.	.	.	.	.	.	.	.	.	.	.	.	.	.	.	.	.	.	.	.	.
!	!	!	!	!	!	!	!	!	!LO:LB:g=original	!	!	!	!	!	!	!	!	!	!	!	!	!	!	!	!	!	!	!	!	!	!	!
4F\	.	.	4f\	.	16f/LL	.	16aa'\LL	.	8F\	mi-	8F\	mi-	.	8f\	mi-	8f\	mi-	.	.	8F/L	8f\L	f	8F\L	.	8F\L	.	8f/L	.	8ff\L	.	8ff\L	8ff\L
.	.	.	.	.	16c/	.	16gg'\J	.	.	.	.	.	.	.	.	.	.	.	.	.	.	.	.	.	.	.	.	.	.	.	.	.
.	.	.	.	.	16A/	.	8ff'\J	.	8A\	-se-	8A\	-se-	.	8a\	-se-	8a\	-se-	.	.	8A/J	8a\J	.	8A\J	.	8A\J	.	8a/J	.	8aa\J	.	8aa\J	8aa\J
.	.	.	.	.	16c/JJ	.	.	.	.	.	.	.	.	.	.	.	.	.	.	.	.	.	.	.	.	.	.	.	.	.	.	.
!	!	!	!	!	!	!	!	!	!	!	!	!	!	!	!	!	!	!	!	!	!	!	!	!	!	!	!	!	!	!	!	!LO:LB:g=original
=61	=61	=61	=61	=61	=61	=61	=61	=61	=61	=61	=61	=61	=61	=61	=61	=61	=61	=61	=61	=61	=61	=61	=61	=61	=61	=61	=61	=61	=61	=61	=61	=61
4C/	x x 7_	.	4c\	.	16B-/LL	.	16bb-'\LL	.	2c\	-re-	2c\	-re-	.	2cc\	-re-	2cc\	-re-	2.ryy	2.ryy	2c/	2cc\	.	2c\	.	2c\	.	2cc\	f	2ccc\	.	2ccc\	2ccc\
.	.	.	.	.	16c/	.	16aa'\J	.	.	.	.	.	.	.	.	.	.	.	.	.	.	.	.	.	.	.	.	.	.	.	.	.
.	.	.	.	.	16e/	.	8gg'\J	.	.	.	.	.	.	.	.	.	.	.	.	.	.	.	.	.	.	.	.	.	.	.	.	.
.	.	.	.	.	16c/JJ	.	.	.	.	.	.	.	.	.	.	.	.	.	.	.	.	.	.	.	.	.	.	.	.	.	.	.
*	*	*	*	*	*rep	*	*	*	*	*	*	*	*	*	*	*	*	*	*	*	*	*	*	*	*	*	*	*	*	*	*	*
4C/	.	.	4c\	.	16B-/LL	.	16gg'\LL	.	.	.	.	.	.	.	.	.	.	.	.	.	.	.	.	.	.	.	.	.	.	.	.	.
.	.	.	.	.	16c/	.	16ff'\J	.	.	.	.	.	.	.	.	.	.	.	.	.	.	.	.	.	.	.	.	.	.	.	.	.
.	.	.	.	.	16e/	.	8ee'\J	.	.	.	.	.	.	.	.	.	.	.	.	.	.	.	.	.	.	.	.	.	.	.	.	.
.	.	.	.	.	16c/JJ	.	.	.	.	.	.	.	.	.	.	.	.	.	.	.	.	.	.	.	.	.	.	.	.	.	.	.
*	*	*	*	*	*Xrep	*	*	*	*	*	*	*	*	*	*	*	*	*	*	*	*	*	*	*	*	*	*	*	*	*	*	*
*	*	*	*	*	*rep	*	*	*	*	*	*	*	*	*	*	*	*	*	*	*	*	*	*	*	*	*	*	*	*	*	*	*
4C/	.	.	4c\	.	16B-/LL	.	16ee\LL	.	4c\	-re	4c\	-re	.	4cc\	-re	4cc\	-re	.	.	4c/	4cc\	.	4c\	.	4c\	.	4cc\	.	4ccc\	.	4ccc\	4ccc\
.	.	.	.	.	16c/	.	16ff\	.	.	.	.	.	.	.	.	.	.	.	.	.	.	.	.	.	.	.	.	.	.	.	.	.
.	.	.	.	.	16e/	.	16gg\	.	.	.	.	.	.	.	.	.	.	.	.	.	.	.	.	.	.	.	.	.	.	.	.	.
.	.	.	.	.	16c/JJ	.	16aa\JJ	.	.	.	.	.	.	.	.	.	.	.	.	.	.	.	.	.	.	.	.	.	.	.	.	.
*	*	*	*	*	*Xrep	*	*	*	*	*	*	*	*	*	*	*	*	*	*	*	*	*	*	*	*	*	*	*	*	*	*	*
!	!	!	!	!	!LO:LB:g=original	!	!	!	!	!	!	!	!	!LO:LB:g=original	!	!	!	!	!	!	!	!	!LO:LB:g=original	!	!	!	!	!	!	!	!	!
=62	=62	=62	=62	=62	=62	=62	=62	=62	=62	=62	=62	=62	=62	=62	=62	=62	=62	=62	=62	=62	=62	=62	=62	=62	=62	=62	=62	=62	=62	=62	=62	=62
4F\	x x 3_	.	4f\	.	16A/LL	.	4ff\	.	4A\	no-	4A\	no-	.	4a\	no-	4a\	no-	2.ryy	2.ryy	4A/	4a\	.	4A\	.	4A\	.	4a\	.	4aa\	.	4aa\	4aa\
.	.	.	.	.	16c/	.	.	.	.	.	.	.	.	.	.	.	.	.	.	.	.	.	.	.	.	.	.	.	.	.	.	.
.	.	.	.	.	16f/	.	.	.	.	.	.	.	.	.	.	.	.	.	.	.	.	.	.	.	.	.	.	.	.	.	.	.
.	.	.	.	.	16c/JJ	.	.	.	.	.	.	.	.	.	.	.	.	.	.	.	.	.	.	.	.	.	.	.	.	.	.	.
*	*	*	*	*	*rep	*	*	*	*	*	*	*	*	*	*	*	*	*	*	*	*	*	*	*	*	*	*	*	*	*	*	*
4F\	.	.	4f\	.	16A/LL	.	8r	.	4F\	-bis	4F\	-bis	.	4f\	-bis	4f\	-bis	.	.	4F/	4f\	.	4F\	.	4F\	.	4f/	.	4ff\	.	4ff\	4ff\
.	.	.	.	.	16c/	.	.	.	.	.	.	.	.	.	.	.	.	.	.	.	.	.	.	.	.	.	.	.	.	.	.	.
.	.	.	.	.	16f/	.	8cc\	.	.	.	.	.	.	.	.	.	.	.	.	.	.	.	.	.	.	.	.	.	.	.	.	.
.	.	.	.	.	16c/JJ	.	.	.	.	.	.	.	.	.	.	.	.	.	.	.	.	.	.	.	.	.	.	.	.	.	.	.
*	*	*	*	*	*Xrep	*	*	*	*	*	*	*	*	*	*	*	*	*	*	*	*	*	*	*	*	*	*	*	*	*	*	*
*	*	*	*	*	*rep	*	*	*	*	*	*	*	*	*	*	*	*	*	*	*	*	*	*	*	*	*	*	*	*	*	*	*
4F\	.	.	4f\	.	16A/LL	.	16aa\LL	.	8F\	mi-	8F\	mi-	.	8f\	mi-	8f\	mi-	.	.	8F/L	(8f\L	.	8F\L	.	8F\L	.	8f/L	.	8ff\L	.	8ff\L	8ff\L
.	.	.	.	.	16c/	.	16gg\J	.	.	.	.	.	.	.	.	.	.	.	.	.	.	.	.	.	.	.	.	.	.	.	.	.
.	.	.	.	.	16f/	.	8ff\J	.	8A\	-se-	8A\	-se-	.	8a\	-se-	8a\	-se-	.	.	8A/J	8a\J)	.	8A\J	.	8A\J	.	8a/J	.	8aa\J	.	8aa\J	8aa\J
.	.	.	.	.	16c/JJ	.	.	.	.	.	.	.	.	.	.	.	.	.	.	.	.	.	.	.	.	.	.	.	.	.	.	.
*	*	*	*	*	*Xrep	*	*	*	*	*	*	*	*	*	*	*	*	*	*	*	*	*	*	*	*	*	*	*	*	*	*	*
!	!	!	!LO:LB:g=original	!	!	!	!	!	!	!	!	!	!	!	!	!	!	!	!	!	!	!	!	!	!	!	!	!	!	!	!	!
=63	=63	=63	=63	=63	=63	=63	=63	=63	=63	=63	=63	=63	=63	=63	=63	=63	=63	=63	=63	=63	=63	=63	=63	=63	=63	=63	=63	=63	=63	=63	=63	=63
4C/	x x 7_	.	4c\	.	16B-/LL	.	16bb-\LL	.	2c\	-re-	2c\	-re-	.	2cc\	-re-	2cc\	-re-	2.ryy	2.ryy	2c/	2cc\	.	2c\	.	2c\	.	2cc\	.	2ccc\	.	2ccc\	2ccc\
.	.	.	.	.	16c/	.	16aa\J	.	.	.	.	.	.	.	.	.	.	.	.	.	.	.	.	.	.	.	.	.	.	.	.	.
.	.	.	.	.	16e/	.	8gg\J	.	.	.	.	.	.	.	.	.	.	.	.	.	.	.	.	.	.	.	.	.	.	.	.	.
.	.	.	.	.	16c/JJ	.	.	.	.	.	.	.	.	.	.	.	.	.	.	.	.	.	.	.	.	.	.	.	.	.	.	.
*	*	*	*	*	*rep	*	*	*	*	*	*	*	*	*	*	*	*	*	*	*	*	*	*	*	*	*	*	*	*	*	*	*
4C/	.	.	4c\	.	16B-/LL	.	16gg\LL	.	.	.	.	.	.	.	.	.	.	.	.	.	.	.	.	.	.	.	.	.	.	.	.	.
.	.	.	.	.	16c/	.	16ff\J	.	.	.	.	.	.	.	.	.	.	.	.	.	.	.	.	.	.	.	.	.	.	.	.	.
.	.	.	.	.	16e/	.	8ee\J	.	.	.	.	.	.	.	.	.	.	.	.	.	.	.	.	.	.	.	.	.	.	.	.	.
.	.	.	.	.	16c/JJ	.	.	.	.	.	.	.	.	.	.	.	.	.	.	.	.	.	.	.	.	.	.	.	.	.	.	.
*	*	*	*	*	*Xrep	*	*	*	*	*	*	*	*	*	*	*	*	*	*	*	*	*	*	*	*	*	*	*	*	*	*	*
*	*	*	*	*	*rep	*	*	*	*	*	*	*	*	*	*	*	*	*	*	*	*	*	*	*	*	*	*	*	*	*	*	*
4C/	.	.	4c\	.	16B-/LL	.	16ee\LL	.	4c\	-re	4c\	-re	.	4cc\	-re	4cc\	-re	.	.	4c/	4cc\	.	4c\	.	4c\	.	4cc\	.	4ccc\	.	4ccc\	4ccc\
.	.	.	.	.	16c/	.	16ff\	.	.	.	.	.	.	.	.	.	.	.	.	.	.	.	.	.	.	.	.	.	.	.	.	.
.	.	.	.	.	16e/	.	16gg\	.	.	.	.	.	.	.	.	.	.	.	.	.	.	.	.	.	.	.	.	.	.	.	.	.
.	.	.	.	.	16c/JJ	.	16aa\JJ	.	.	.	.	.	.	.	.	.	.	.	.	.	.	.	.	.	.	.	.	.	.	.	.	.
*	*	*	*	*	*Xrep	*	*	*	*	*	*	*	*	*	*	*	*	*	*	*	*	*	*	*	*	*	*	*	*	*	*	*
!LO:LB:g=original	!	!	!	!	!	!	!LO:LB:g=original	!	!	!	!	!	!	!	!	!	!	!	!	!LO:LB:g=original	!	!	!	!	!	!	!	!	!	!	!	!
=64	=64	=64	=64	=64	=64	=64	=64	=64	=64	=64	=64	=64	=64	=64	=64	=64	=64	=64	=64	=64	=64	=64	=64	=64	=64	=64	=64	=64	=64	=64	=64	=64
!	!	!LO:DY:b:rj:t=pia	!	!LO:DY:rj	!	!LO:DY:b:rj:t=p.	!	!	!	!	!	!	!	!	!	!	!	!	!	!	!	!	!	!	!	!	!	!	!	!	!	!
4F\	x x 3	p	4c\	p	4A/	p	4ff\	.	4A\	no-	4A\	no-	.	4a\	no-	4a\	no-	2.ryy	2.ryy	4A/	4a\	p	4A\	p	4A\	.	4a\	.	4aa\	.	4aa\	4aa\
4FF|/	.	.	4c\	.	4A/	.	4f/	.	4F\	-bis.	4F/	-bis.	.	4f\	-bis.	4f/	-bis.	.	.	4A/	4f\	.	4F\	.	4A\	.	4a\	.	4ff\	.	4ff\	4aa\
4FF|/	.	.	4c\	.	4A/	.	4f/	.	4r	.	4r	.	.	4r	.	4r	.	.	.	4A/	4f\	.	4F\	.	4A\	.	4a\	.	4ff\	.	4ff\	4aa\
=65	=65	=65	=65	=65	=65	=65	=65	=65	=65	=65	=65	=65	=65	=65	=65	=65	=65	=65	=65	=65	=65	=65	=65	=65	=65	=65	=65	=65	=65	=65	=65	=65
!	!	!	!	!	!	!	!	!	!LO:TX:a:t=1.	!	!LO:TX:a:t=1	!	!	!LO:TX:b:t=1.	!	!LO:TX:a:t=1.	!	!	!	!	!	!	!	!	!	!	!	!	!	!	!	!
2FF|/	.	.	2c\	.	2A/	.	2f/	.	2.r	.	2.r	.	.	2.r	.	2.r	.	2.ryy	2.ryy	2A/	2f\	.	2F\	.	2A\	.	2a\	.	2ff\	.	2ff\	2aa\
4r	.	.	4r	.	4r	.	4r	.	.	.	.	.	.	.	.	.	.	.	.	4r	4r	.	4r	.	4r	.	4r	.	4r	.	4r	4r
!	!	!	!	!	!	!	!	!	!	!	!	!	!	!	!	!	!	!	!	!LO:TX:a:t=werte Subite	!	!	!LO:TX:a:t=Quoniam	!	!	!	!	!	!	!	!	!
==	==	==	==	==	==	==	==	==	==	==	==	==	==	==	==	==	==	==	==	==	==	==	==	==	==	==	==	==	==	==	==	==
*-	*-	*-	*-	*-	*-	*-	*-	*-	*-	*-	*-	*-	*-	*-	*-	*-	*-	*-	*-	*-	*-	*-	*-	*-	*-	*-	*-	*-	*-	*-	*-	*-
!!!system-decoration: [(g1)][(g2)][(g3)][(g4)][(g5)]g6
!!!RDF**kern: > = above
!!!RDF**kern: < = below
!!!RDF**kern: | = vertical stroke
!!!ENC: Katarzyna Serwa
!!!END: 2021-10-25
!!!ENC: Marcin Jachim
!!!END: 2020-10-07
!!!YEC: Copyright 2022 Narodowy Instytut Fryderyka Chopina (https://polishscores.org)
!!!YEM: Licence CC BY 4.0 (https://creativecommons.org/licenses/by/4.0)
